; generated by PrusaSlicer 2.6.1+win64 on 2023-11-19 at 02:58:06 UTC


;
;

;
;
; 

; external perimeters extrusion width = 0.40mm
; perimeters extrusion width = 0.40mm
; infill extrusion width = 0.40mm
; solid infill extrusion width = 0.40mm
; top infill extrusion width = 0.38mm
; support material extrusion width = 0.40mm
; first layer extrusion width = 0.40mm

M73 P0 R50


; Pre-Processed for Cancel-Object support by preprocess_cancellation v0.2.0
; 1 known objects
EXCLUDE_OBJECT_DEFINE NAME=arreglado_obj_id_0_copy_0 CENTER=117.313,116.594 POLYGON=[[89.788,87.694],[89.788,142.302],[140.34,142.302],[140.34,87.694]]
M190 S60 ; set bed temperature and wait for it to be reached
M104 S200 ; set temperature
;TYPE:Custom
START_PRINT EXTRUDER_TEMP=200 BED_TEMP=60
M109 S200 ; set temperature and wait for it to be reached
G21 ; set units to millimeters
G90 ; use absolute coordinates
M82 ; use absolute distances for extrusion
G92 E0
; Filament gcode
; M900 K0.035 ; Linear Advance
M107
;LAYER_CHANGE
;Z:0.25
;HEIGHT:0.25

G1 Z.25 F9000
;AFTER_LAYER_CHANGE
;0.25
G1 E-1.5 F1800
G92 E0
G1 X90.987 Y106.038 F9000
G1 E1.5 F1800
;TYPE:Skirt/Brim
;WIDTH:0.4
G1 F1200
G1 X118.936 Y83.089 E2.80185
G1 X121.021 Y82.107 E2.88482
G1 X122.96 Y81.872 E2.95513
G1 X140.647 Y82.339 E3.59206
G1 X142.903 Y82.816 E3.67507
G1 X144.863 Y84.03 E3.75807
G1 X146.294 Y85.836 E3.84102
G1 X147.104 Y89.028 E3.95957
G1 X146.274 Y137.316 E5.69814
G1 X146.127 Y141.119 E5.83515
G1 X145.952 Y142.397 E5.88159
G1 X145.702 Y143.299 E5.91529
G1 X144.075 Y146.037 E6.02994
G1 X142.122 Y147.458 E6.11689
G1 X140.92 Y147.9 E6.16299
G1 X139.488 Y148.173 E6.21547
G1 X124.583 Y148.393 E6.75209
G1 X123.105 Y148.296 E6.80541
G1 X122.228 Y148.095 E6.8378
G1 X97.314 Y140.594 E7.77444
G1 X95.579 Y139.891 E7.84183
G1 X93.765 Y138.925 E7.91581
G1 X91.884 Y137.675 E7.99711
G1 X90.386 Y136.421 E8.06744
G1 X89.048 Y135.079 E8.13566
G1 X87.805 Y133.596 E8.20532
G1 X86.734 Y131.982 E8.27505
G1 X85.888 Y130.497 E8.33657
G1 X85.202 Y128.94 E8.39782
G1 X84.518 Y126.899 E8.47531
G1 X84.014 Y124.532 E8.56243
G1 X83.814 Y122.424 E8.63866
G1 X83.822 Y120.411 E8.71113
G1 X84.003 Y118.519 E8.77955
G1 X84.397 Y116.544 E8.85205
G1 X84.991 Y114.611 E8.92485
G1 X85.496 Y113.321 E8.97472
G1 X86.685 Y111.067 E9.06646
G1 X87.745 Y109.502 E9.1345
G1 X89.208 Y107.719 E9.21753
G1 X90.943 Y106.079 E9.30347
G1 X91.181 Y106.331 F9000
G1 F1200
G1 X119.135 Y83.372 E10.60568
M73 P0 R49
G1 X121.17 Y82.425 E10.68648
G1 X122.951 Y82.218 E10.75103
G1 X140.635 Y82.686 E11.38786
G1 X142.829 Y83.16 E11.46866
G1 X144.72 Y84.368 E11.54944
G1 X146.073 Y86.159 E11.63024
G1 X146.758 Y89.028 E11.73642
G1 X145.928 Y137.31 E13.47477
G1 X145.781 Y141.105 E13.61149
G1 X145.615 Y142.318 E13.65556
G1 X145.371 Y143.198 E13.68843
G1 X143.828 Y145.794 E13.79714
G1 X141.919 Y147.172 E13.8819
G1 X140.832 Y147.565 E13.92351
G1 X139.459 Y147.828 E13.97384
G1 X124.579 Y148.047 E14.50956
G1 X123.16 Y147.953 E14.56075
G1 X122.328 Y147.764 E14.59146
G1 X97.438 Y140.271 E15.52719
G1 X95.729 Y139.579 E15.59356
G1 X93.939 Y138.625 E15.66658
G1 X92.096 Y137.401 E15.74622
G1 X90.622 Y136.169 E15.81538
G1 X89.307 Y134.849 E15.88245
G1 X88.082 Y133.387 E15.95111
G1 X87.03 Y131.802 E16.01959
G1 X86.202 Y130.35 E16.07976
G1 X85.524 Y128.811 E16.1403
G1 X84.848 Y126.795 E16.21685
G1 X84.354 Y124.466 E16.30256
G1 X84.16 Y122.406 E16.37705
G1 X84.167 Y120.428 E16.44826
G1 X84.343 Y118.585 E16.51491
G1 X84.735 Y116.622 E16.58697
G1 X85.315 Y114.733 E16.65811
G1 X85.812 Y113.463 E16.7072
G1 X86.975 Y111.256 E16.79701
G1 X88.02 Y109.714 E16.86407
G1 X89.458 Y107.958 E16.94578
G1 X91.137 Y106.372 E17.02892
; printing object arreglado.obj id:0 copy 0
EXCLUDE_OBJECT_START NAME=arreglado_obj_id_0_copy_0
G1 E15.52892 F1800
G92 E0
G1 X123.002 Y89.856 F9000
G1 E1.5 F1800
;TYPE:Perimeter
;WIDTH:0.399999
G1 F1200
G1 X123.078 Y89.892 E1.50303
G1 X138.512 Y89.885 E2.05864
G1 X138.524 Y130.05 E3.50453
G1 X138.596 Y133.121 E3.61511
G1 X138.668 Y134.335 E3.65889
G1 X138.668 Y135.058 E3.68492
G1 X138.627 Y135.786 E3.71117
G1 X138.688 Y137.193 E3.76187
G1 X138.587 Y138.885 E3.82289
G1 X138.551 Y140.622 E3.88543
G1 X138.46 Y140.641 E3.88878
G1 X124.672 Y140.644 E4.38513
G1 X124.319 Y140.734 E4.39824
G1 X124.246 Y140.734 E4.40087
G1 X123.668 Y140.572 E4.42248
G1 X123.034 Y140.356 E4.44659
G1 X122.349 Y140.172 E4.47212
G1 X122.008 Y140.04 E4.48528
G1 X120.581 Y139.598 E4.53906
G1 X120.026 Y139.449 E4.55975
G1 X119.271 Y139.171 E4.58871
G1 X118.802 Y139.055 E4.6061
G1 X118.301 Y138.862 E4.62543
G1 X117.772 Y138.731 E4.64505
G1 X117.115 Y138.48 E4.67037
G1 X116.621 Y138.36 E4.68867
G1 X116.054 Y138.134 E4.71064
G1 X115.531 Y138.018 E4.72992
G1 X114.952 Y137.783 E4.75241
G1 X114.442 Y137.678 E4.77115
G1 X113.872 Y137.453 E4.79321
G1 X113.339 Y137.339 E4.81283
G1 X112.794 Y137.13 E4.83384
G1 X112.255 Y137.003 E4.85377
G1 X111.792 Y136.811 E4.87181
G1 X111.147 Y136.655 E4.8957
G1 X110.882 Y136.532 E4.90622
G1 X110.362 Y136.389 E4.92563
G1 X108.886 Y135.907 E4.98153
G1 X107.512 Y135.485 E5.03327
G1 X106.929 Y135.271 E5.05563
G1 X106.382 Y135.126 E5.076
G1 X105.808 Y134.919 E5.09797
G1 X105.287 Y134.782 E5.11736
G1 X104.691 Y134.58 E5.14001
G1 X103.95 Y134.481 E5.16692
G1 X103.336 Y134.29 E5.19007
G1 X102.769 Y134.184 E5.21083
G1 X102.283 Y134.018 E5.22932
G1 X101.11 Y133.81 E5.27221
G1 X100.523 Y133.606 E5.29458
G1 X99.996 Y133.493 E5.31398
G1 X99.582 Y133.307 E5.33032
G1 X98.968 Y133.093 E5.35373
G1 X98.295 Y132.77 E5.3806
G1 X97.774 Y132.479 E5.40208
G1 X97.207 Y132.125 E5.42614
G1 X96.557 Y131.671 E5.45468
G1 X95.724 Y131.01 E5.49296
G1 X95.309 Y130.635 E5.5131
G1 X94.52 Y129.811 E5.55417
G1 X93.946 Y129.131 E5.5862
G1 X93.648 Y128.646 E5.60669
G1 X93.036 Y127.74 E5.64605
G1 X92.679 Y127.112 E5.67205
G1 X92.467 Y126.653 E5.69025
G1 X91.762 Y124.631 E5.76734
G1 X91.616 Y123.691 E5.80158
G1 X91.476 Y123.139 E5.82208
G1 X91.855 Y123.408 E5.83881
G1 X92.266 Y123.52 E5.85415
G1 X92.967 Y123.5 E5.8794
G1 X93.537 Y123.224 E5.9022
G1 X93.876 Y123.01 E5.91663
G1 X94.081 Y122.78 E5.92772
G1 X94.431 Y122.21 E5.9518
G1 X94.545 Y121.916 E5.96315
G1 X94.577 Y121.415 E5.98122
G1 X94.5 Y120.938 E5.99861
G1 X94.322 Y120.509 E6.01533
G1 X93.925 Y120.028 E6.03778
G1 X93.469 Y119.669 E6.05867
G1 X93.138 Y119.555 E6.07127
G1 X92.602 Y119.488 E6.09072
G1 X92.011 Y119.552 E6.11212
G1 X91.477 Y119.872 E6.13453
G1 X91.643 Y119.259 E6.15739
G1 X91.741 Y118.496 E6.18508
G1 X91.929 Y118.048 E6.20257
G1 X92.039 Y117.473 E6.22364
M73 P1 R49
G1 X92.268 Y117.022 E6.24185
G1 X92.335 Y116.687 E6.25415
G1 X92.871 Y115.552 E6.29934
G1 X93.59 Y114.376 E6.34896
G1 X94.365 Y113.347 E6.39533
G1 X95.43 Y112.245 E6.4505
G1 X96.2 Y111.579 E6.48715
G1 X97.072 Y110.941 E6.52605
G1 X97.525 Y110.66 E6.54524
G1 X98.501 Y110.124 E6.58532
G1 X99.471 Y109.69 E6.62357
G1 X100.01 Y109.485 E6.64433
G1 X100.405 Y109.188 E6.66212
G1 X101.821 Y107.997 E6.72873
G1 X102.183 Y107.645 E6.74691
G1 X103.443 Y106.567 E6.8066
G1 X104.014 Y106.025 E6.83494
G1 X104.246 Y105.883 E6.84473
G1 X104.632 Y105.559 E6.86287
G1 X105.005 Y105.203 E6.88143
G1 X106.662 Y103.767 E6.96036
G1 X107.391 Y103.108 E6.99574
G1 X107.914 Y102.686 E7.01993
G1 X108.857 Y101.83 E7.06578
G1 X109.162 Y101.649 E7.07855
G1 X109.398 Y101.377 E7.09151
G1 X110.737 Y100.237 E7.15482
G1 X111.898 Y99.174 E7.21149
G1 X112.467 Y98.75 E7.23703
G1 X113.218 Y98.058 E7.27379
G1 X114.313 Y97.115 E7.32581
G1 X114.795 Y96.674 E7.34933
G1 X115.23 Y96.329 E7.36932
G1 X116.918 Y94.826 E7.45068
G1 X117.174 Y94.673 E7.46142
G1 X117.534 Y94.322 E7.47952
G1 X118.307 Y93.624 E7.51701
G1 X119.53 Y92.551 E7.57558
G1 X120.141 Y92.069 E7.6036
G1 X121.709 Y90.697 E7.6786
G1 X122.621 Y89.85 E7.72341
G1 X122.777 Y89.75 E7.73008
G1 X122.948 Y89.83 E7.73688
G1 X123.121 Y89.536 F9000
G1 F1200
G1 X123.162 Y89.555 E7.73851
G1 X123.546 Y89.535 E7.75235
G1 X138.87 Y89.539 E8.304
G1 X138.87 Y130.043 E9.7621
G1 X138.942 Y133.11 E9.87254
G1 X139.014 Y134.314 E9.91596
G1 X139.013 Y135.079 E9.9435
G1 X138.973 Y135.771 E9.96845
G1 X139.035 Y137.195 E10.01976
G1 X138.934 Y138.892 E10.08096
G1 X138.896 Y140.713 E10.14653
G1 X138.828 Y140.931 E10.15475
G1 X138.505 Y140.987 E10.16655
G1 X125.239 Y140.987 E10.64411
G1 X124.582 Y141.004 E10.66777
G1 X124.344 Y141.133 E10.67752
G1 X123.982 Y141.005 E10.69134
G1 X123.375 Y140.858 E10.71382
G1 X122.944 Y140.69 E10.73047
G1 X122.26 Y140.506 E10.75597
G1 X121.907 Y140.371 E10.76958
G1 X120.49 Y139.933 E10.82297
G1 X119.921 Y139.779 E10.84419
G1 X119.152 Y139.496 E10.87369
G1 X118.7 Y139.387 E10.89043
G1 X118.176 Y139.185 E10.91065
G1 X117.676 Y139.065 E10.92916
G1 X117.087 Y138.84 E10.95186
G1 X116.518 Y138.692 E10.97302
G1 X115.929 Y138.458 E10.99584
G1 X115.43 Y138.351 E11.01421
G1 X114.846 Y138.113 E11.03691
G1 X114.341 Y138.011 E11.05546
G1 X113.8 Y137.792 E11.07647
G1 X113.238 Y137.671 E11.09716
G1 X112.714 Y137.467 E11.1174
G1 X112.143 Y137.332 E11.13852
G1 X111.711 Y137.147 E11.15544
G1 X111.033 Y136.984 E11.18054
G1 X110.666 Y136.823 E11.19497
G1 X110.159 Y136.694 E11.2138
G1 X109.711 Y136.532 E11.23095
G1 X108.278 Y136.088 E11.28496
G1 X107.798 Y135.911 E11.30338
G1 X107.255 Y135.759 E11.32368
G1 X106.778 Y135.59 E11.3419
G1 X106.259 Y135.45 E11.36125
G1 X105.675 Y135.245 E11.38353
G1 X105.164 Y135.106 E11.40259
G1 X104.645 Y134.923 E11.4224
G1 X103.873 Y134.82 E11.45044
G1 X103.272 Y134.631 E11.47312
G1 X102.705 Y134.524 E11.49389
G1 X102.22 Y134.358 E11.51234
G1 X101.022 Y134.146 E11.55614
G1 X100.45 Y133.945 E11.57797
G1 X99.884 Y133.824 E11.59881
G1 X99.477 Y133.637 E11.61493
G1 X98.823 Y133.408 E11.63987
G1 X98.127 Y133.073 E11.66768
G1 X97.591 Y132.773 E11.68979
G1 X97.016 Y132.414 E11.71419
G1 X96.347 Y131.946 E11.74358
G1 X95.494 Y131.269 E11.78278
G1 X95.063 Y130.879 E11.8037
G1 X94.257 Y130.037 E11.84566
G1 X93.673 Y129.345 E11.87826
G1 X93.366 Y128.847 E11.89932
G1 X92.738 Y127.916 E11.93975
G1 X92.365 Y127.259 E11.96695
G1 X92.057 Y126.569 E11.99415
G1 X91.675 Y125.483 E12.03559
G1 X91.589 Y125.162 E12.04755
G1 X91.427 Y124.726 E12.06429
G1 X91.263 Y123.693 E12.10194
G1 X91.134 Y123.203 E12.12018
G1 X91.109 Y122.94 E12.12969
;WIDTH:0.441212
G1 X91.103 Y122.578 E12.14427
;WIDTH:0.482424
G1 X91.097 Y122.215 E12.16045
G1 X91.172 Y122.325 E12.16638
;WIDTH:0.452232
G1 X91.248 Y122.435 E12.17192
;WIDTH:0.422039
G1 X91.55 Y122.751 E12.18866
;WIDTH:0.399999
G1 X91.976 Y123.075 E12.20793
G1 X92.273 Y123.174 E12.2192
G1 X92.823 Y123.177 E12.239
G1 X93.397 Y122.906 E12.26185
G1 X93.663 Y122.737 E12.27319
G1 X93.813 Y122.555 E12.28168
G1 X94.194 Y121.898 E12.30902
G1 X94.231 Y121.398 E12.32707
G1 X94.163 Y121.016 E12.34104
G1 X94.046 Y120.719 E12.35253
G1 X93.747 Y120.334 E12.37008
G1 X93.359 Y120.013 E12.38821
G1 X93.15 Y119.91 E12.3966
G1 X92.623 Y119.834 E12.41577
G1 X92.123 Y119.88 E12.43385
G1 X91.944 Y119.978 E12.4412
G1 X91.469 Y120.324 E12.46235
G1 X91.053 Y120.902 E12.48799
G1 X91.113 Y119.917 E12.52351
G1 X91.243 Y119.416 E12.54214
G1 X91.438 Y118.241 E12.58502
G1 X91.602 Y117.935 E12.59752
G1 X91.703 Y117.379 E12.61786
G1 X91.944 Y116.899 E12.6372
G1 X92 Y116.573 E12.64911
G1 X92.201 Y116.195 E12.66452
G1 X92.454 Y115.618 E12.6872
G1 X92.713 Y115.1 E12.70805
G1 X92.869 Y114.906 E12.71701
G1 X93.121 Y114.45 E12.73577
G1 X93.485 Y113.913 E12.75912
G1 X93.797 Y113.509 E12.7775
G1 X94.108 Y113.113 E12.79563
G1 X94.46 Y112.738 E12.81415
G1 X95.086 Y112.116 E12.84592
G1 X95.79 Y111.465 E12.88044
G1 X96.805 Y110.705 E12.92609
G1 X97.322 Y110.379 E12.94809
G1 X98.345 Y109.814 E12.99016
G1 X99.957 Y109.109 E13.0535
G1 X100.837 Y108.381 E13.09461
G1 X101.047 Y108.158 E13.10564
G1 X101.217 Y108.06 E13.1127
G1 X101.943 Y107.394 E13.14817
G1 X103.205 Y106.315 E13.20794
G1 X103.802 Y105.749 E13.23755
G1 X104.395 Y105.298 E13.26437
G1 X105.139 Y104.631 E13.30034
G1 X106.057 Y103.846 E13.34382
G1 X106.319 Y103.568 E13.35757
G1 X106.83 Y103.156 E13.3812
G1 X107.161 Y102.849 E13.39745
G1 X107.681 Y102.43 E13.42149
G1 X108.624 Y101.573 E13.46736
G1 X108.952 Y101.373 E13.48119
G1 X109.134 Y101.136 E13.49195
G1 X109.306 Y101.024 E13.49934
G1 X109.57 Y100.753 E13.51296
G1 X110.503 Y99.981 E13.55655
G1 X111.664 Y98.918 E13.61322
G1 X112.219 Y98.508 E13.63806
G1 X112.992 Y97.795 E13.67592
G1 X114.08 Y96.86 E13.72756
G1 X114.549 Y96.43 E13.75047
G1 X114.994 Y96.075 E13.77096
G1 X116.686 Y94.569 E13.8525
G1 X116.987 Y94.382 E13.86526
G1 X117.223 Y94.103 E13.87841
G1 X117.35 Y94.028 E13.88372
G1 X119.309 Y92.285 E13.97811
G1 X119.83 Y91.885 E14.00176
G1 X120.014 Y91.667 E14.01203
G1 X120.132 Y91.598 E14.01695
G1 X120.878 Y90.934 E14.0529
G1 X121.476 Y90.44 E14.08082
G1 X122.376 Y89.605 E14.12502
G1 X122.611 Y89.446 E14.13523
G1 X122.794 Y89.27 E14.14437
G1 X122.974 Y89.466 E14.15395
G1 X123.067 Y89.511 E14.15767
G1 X123.204 Y89.189 F9000
;TYPE:External perimeter
G1 F1200
G1 X123.237 Y89.217 E14.15923
G1 X123.518 Y89.189 E14.1694
G1 X138.607 Y89.192 E14.71259
G1 X139.448 Y89.172 E14.74287
G1 X139.263 Y89.346 E14.75201
G1 X139.22 Y89.454 E14.75619
G1 X139.205 Y89.822 E14.76945
G1 X139.216 Y130.036 E16.21711
G1 X139.289 Y133.099 E16.32741
G1 X139.36 Y134.294 E16.3705
G1 X139.359 Y135.101 E16.39955
G1 X139.319 Y135.756 E16.42317
G1 X139.382 Y137.198 E16.47513
G1 X139.28 Y138.9 E16.53651
G1 X139.24 Y140.798 E16.60485
G1 X139.115 Y141.24 E16.62139
G1 X138.551 Y141.333 E16.64197
G1 X124.69 Y141.337 E17.14095
G1 X124.442 Y141.498 E17.15159
G1 X124.29 Y141.491 E17.15707
G1 X123.901 Y141.341 E17.17208
G1 X123.082 Y141.143 E17.20241
G1 X122.854 Y141.025 E17.21165
G1 X122.17 Y140.841 E17.23715
G1 X121.807 Y140.702 E17.25114
G1 X120.4 Y140.267 E17.30416
G1 X119.816 Y140.109 E17.32594
G1 X119.032 Y139.821 E17.35601
G1 X118.598 Y139.719 E17.37206
G1 X118.052 Y139.508 E17.39313
G1 X117.581 Y139.399 E17.41053
G1 X116.964 Y139.164 E17.4343
G1 X116.416 Y139.023 E17.45467
G1 X115.876 Y138.809 E17.47558
G1 X115.33 Y138.684 E17.49574
G1 X114.741 Y138.443 E17.51865
G1 X114.239 Y138.344 E17.53707
G1 X113.727 Y138.13 E17.55705
G1 X113.137 Y138.004 E17.57877
G1 X112.634 Y137.804 E17.59826
G1 X112.031 Y137.661 E17.62057
G1 X111.63 Y137.484 E17.63635
G1 X110.918 Y137.312 E17.66272
G1 X110.58 Y137.159 E17.67608
G1 X109.808 Y136.962 E17.70476
G1 X109.541 Y136.836 E17.71539
G1 X107.309 Y136.148 E17.79947
G1 X106.739 Y135.937 E17.82135
G1 X106.378 Y135.865 E17.8346
G1 X105.685 Y135.604 E17.86126
G1 X105.24 Y135.505 E17.87767
G1 X104.599 Y135.267 E17.90228
G1 X103.796 Y135.159 E17.93145
G1 X103.208 Y134.971 E17.95367
G1 X102.411 Y134.821 E17.98286
G1 X102.156 Y134.699 E17.99304
G1 X100.934 Y134.483 E18.03771
G1 X100.377 Y134.284 E18.059
G1 X99.773 Y134.154 E18.08124
G1 X99.372 Y133.967 E18.09717
G1 X98.85 Y133.801 E18.11689
G1 X98.124 Y133.467 E18.14566
G1 X97.476 Y133.109 E18.17231
G1 X96.405 Y132.427 E18.21802
G1 X95.478 Y131.717 E18.26005
G1 X94.893 Y131.199 E18.28818
G1 X94.203 Y130.503 E18.32346
G1 X93.54 Y129.736 E18.35996
G1 X93.223 Y129.332 E18.37845
G1 X93.084 Y129.048 E18.38983
G1 X92.44 Y128.093 E18.4313
G1 X92.052 Y127.406 E18.4597
G1 X91.737 Y126.703 E18.48743
G1 X91.35 Y125.603 E18.52941
G1 X91.245 Y125.204 E18.54426
G1 X91.091 Y124.822 E18.55909
G1 X90.928 Y123.781 E18.59702
G1 X90.799 Y123.291 E18.61526
G1 X90.697 Y122.047 E18.66019
;WIDTH:0.441399
G1 X90.717 Y121.76 E18.67178
;WIDTH:0.482798
G1 X90.736 Y121.473 E18.68461
G1 X90.722 Y121.293 E18.69266
;WIDTH:0.456013
G1 X90.708 Y121.113 E18.70021
;WIDTH:0.429228
G1 X90.724 Y120.611 E18.71982
;WIDTH:0.399999
G1 X90.789 Y119.764 E18.7504
G1 X90.954 Y119.188 E18.77197
G1 X91.008 Y118.662 E18.791
G1 X91.109 Y118.12 E18.81085
G1 X91.231 Y117.904 E18.81978
G1 X91.429 Y117.131 E18.84851
G1 X91.592 Y116.824 E18.86102
G1 X91.737 Y116.278 E18.88136
G1 X91.884 Y116.056 E18.89094
G1 X92.137 Y115.479 E18.91362
G1 X92.405 Y114.942 E18.93523
G1 X92.546 Y114.757 E18.9436
G1 X93.017 Y113.987 E18.97609
G1 X93.694 Y113.08 E19.01683
G1 X94.038 Y112.703 E19.0352
G1 X94.269 Y112.407 E19.04872
G1 X94.408 Y112.324 E19.05455
G1 X94.61 Y112.048 E19.06686
G1 X94.762 Y111.952 E19.07333
G1 X94.955 Y111.712 E19.08442
G1 X95.107 Y111.632 E19.0906
