; generated by PrusaSlicer 2.6.1+win64 on 2023-11-19 at 19:08:12 UTC


;
;

;
;
; 

; external perimeters extrusion width = 0.40mm
; perimeters extrusion width = 0.40mm
; infill extrusion width = 0.40mm
; solid infill extrusion width = 0.40mm
; top infill extrusion width = 0.38mm
; support material extrusion width = 0.40mm
; first layer extrusion width = 0.40mm

M73 P0 R161


; Pre-Processed for Cancel-Object support by preprocess_cancellation v0.2.0
; 1 known objects
EXCLUDE_OBJECT_DEFINE NAME=ball_display_stand_stl_id_0_copy_0 CENTER=113.449,114.876 POLYGON=[[77.675,79.782],[77.675,150.215],[152.309,150.215],[152.309,79.782]]
M190 S60 ; set bed temperature and wait for it to be reached
M104 S200 ; set temperature
;TYPE:Custom
START_PRINT EXTRUDER_TEMP=200 BED_TEMP=60
M109 S200 ; set temperature and wait for it to be reached
G21 ; set units to millimeters
G90 ; use absolute coordinates
M82 ; use absolute distances for extrusion
G92 E0
; Filament gcode
; M900 K0.035 ; Linear Advance
M107
;LAYER_CHANGE
;Z:0.25
;HEIGHT:0.25

G1 Z.25 F9000
;AFTER_LAYER_CHANGE
;0.25
G1 E-1.5 F1800
G92 E0
G1 X80.456 Y94.607 F9000
G1 E1.5 F1800
;TYPE:Skirt/Brim
;WIDTH:0.4
G1 F1200
G1 X83.919 Y91.706 E1.66263
G1 X86.168 Y90.099 E1.76214
G1 X89.625 Y87.926 E1.90913
G1 X91.94 Y86.686 E2.00367
G1 X113.971 Y76.903 E2.87144
G1 X116.012 Y76.191 E2.94926
G1 X125.227 Y73.435 E3.29551
G1 X127.516 Y73.165 E3.37848
G1 X129.394 Y73.544 E3.44745
G1 X131.766 Y74.396 E3.53818
G1 X145.509 Y79.904 E4.07117
G1 X147.429 Y81.179 E4.15414
G1 X148.819 Y83.061 E4.23837
G1 X149.222 Y83.872 E4.27097
G1 X156.698 Y100.836 E4.93833
G1 X157.322 Y102.829 E5.01351
G1 X158.058 Y106.448 E5.14646
G1 X158.199 Y107.604 E5.18838
G1 X159.196 Y129.033 E5.96063
G1 X159.189 Y129.862 E5.99047
G1 X158.28 Y132.994 E6.10787
G1 X157.389 Y134.299 E6.16475
G1 X156.597 Y135.218 E6.20842
G1 X155.592 Y136.165 E6.25813
G1 X139.778 Y148.249 E6.97459
G1 X136.87 Y150.21 E7.10085
G1 X132.964 Y152.057 E7.25639
G1 X131.258 Y152.689 E7.32188
G1 X125.344 Y154.612 E7.54575
M73 P0 R160
G1 X123.61 Y155.132 E7.61092
G1 X122.385 Y155.376 E7.65588
G1 X108.632 Y156.798 E8.15361
G1 X107.542 Y156.821 E8.19286
G1 X106.156 Y156.707 E8.24292
G1 X104.218 Y156.185 E8.31517
G1 X102.184 Y155.255 E8.39568
G1 X95.596 Y151.627 E8.66642
G1 X89.801 Y147.936 E8.91375
G1 X81.075 Y141.997 E9.29373
G1 X79.91 Y141.128 E9.34605
G1 X79.08 Y140.387 E9.3861
G1 X78.603 Y139.842 E9.41217
G1 X77.889 Y138.93 E9.45387
G1 X77.227 Y137.905 E9.4978
G1 X76.567 Y136.612 E9.55006
G1 X76.114 Y135.251 E9.6017
G1 X75.74 Y133.399 E9.66972
G1 X75.184 Y129.249 E9.82045
G1 X72.993 Y109.58 E10.53289
G1 X73.168 Y107.151 E10.62056
G1 X73.588 Y105.589 E10.67879
G1 X74.635 Y103.214 E10.77223
G1 X77.32 Y98.4 E10.97066
G1 X77.841 Y97.582 E11.00557
G1 X79.022 Y96.042 E11.07543
G1 X80.413 Y94.649 E11.1463
G1 X80.657 Y94.893 F9000
G1 F1200
G1 X84.121 Y91.987 E11.30907
G1 X86.353 Y90.392 E11.40783
G1 X89.791 Y88.23 E11.55403
G1 X92.081 Y87.002 E11.64757
G1 X114.086 Y77.23 E12.51432
G1 X116.112 Y76.523 E12.59157
G1 X125.326 Y73.767 E12.93778
G1 X127.556 Y73.514 E13.01857
G1 X129.278 Y73.87 E13.08187
G1 X131.637 Y74.717 E13.1721
G1 X145.37 Y80.221 E13.7047
G1 X147.204 Y81.442 E13.78402
G1 X148.569 Y83.311 E13.86734
G1 X156.381 Y100.976 E14.56267
G1 X156.988 Y102.921 E14.63602
G1 X157.718 Y106.515 E14.76804
G1 X157.853 Y107.62 E14.80811
G1 X158.85 Y129.049 E15.58036
G1 X158.843 Y129.85 E15.6092
G1 X157.981 Y132.82 E15.72053
G1 X157.127 Y134.073 E15.77512
G1 X156.335 Y134.991 E15.81877
G1 X155.381 Y135.89 E15.86596
G1 X139.568 Y147.973 E16.58237
G1 X136.7 Y149.908 E16.70692
G1 X132.82 Y151.742 E16.86141
G1 X131.151 Y152.36 E16.92548
G1 X125.237 Y154.283 E17.14935
G1 X123.511 Y154.8 E17.21421
G1 X122.35 Y155.031 E17.25682
G1 X108.596 Y156.453 E17.75459
G1 X107.563 Y156.476 E17.79179
G1 X106.195 Y156.363 E17.8412
G1 X104.357 Y155.868 E17.90972
G1 X102.342 Y154.947 E17.98948
G1 X95.763 Y151.323 E18.25987
G1 X89.996 Y147.649 E18.50603
G1 X81.27 Y141.71 E18.88601
G1 X80.118 Y140.852 E18.93772
G1 X79.331 Y140.149 E18.97571
G1 X78.876 Y139.628 E19.00061
G1 X78.161 Y138.716 E19.04233
G1 X77.534 Y137.745 E19.08394
G1 X76.882 Y136.468 E19.13556
G1 X76.453 Y135.178 E19.1845
G1 X76.082 Y133.338 E19.25207
G1 X75.529 Y129.211 E19.40197
G1 X73.337 Y109.542 E20.11441
G1 X73.504 Y107.238 E20.19757
G1 X73.917 Y105.696 E20.25504
G1 X74.937 Y103.382 E20.34608
G1 X77.623 Y98.569 E20.5445
G1 X78.129 Y97.774 E20.57842
G1 X79.295 Y96.256 E20.64733
G1 X80.615 Y94.936 E20.71453
; printing object ball-display-stand.stl id:0 copy 0
EXCLUDE_OBJECT_START NAME=ball_display_stand_stl_id_0_copy_0
G1 E19.21453 F1800
G92 E0
G1 X132.207 Y88.061 F9000
G1 E1.5 F1800
;TYPE:Perimeter
;WIDTH:0.399999
G1 F1200
G1 X132.435 Y88.162 E1.50898
G1 X132.786 Y88.165 E1.52162
G1 X133.657 Y87.993 E1.55358
G1 X134.438 Y87.873 E1.58202
G1 X136.809 Y87.022 E1.6727
G1 X136.959 Y87.007 E1.67813
G1 X137.843 Y87.223 E1.71089
G1 X138.13 Y87.357 E1.72229
G1 X138.464 Y87.438 E1.73466
G1 X139.426 Y87.472 E1.76931
G1 X139.982 Y87.531 E1.78944
G1 X140.317 Y87.537 E1.8015
G1 X140.562 Y87.454 E1.81081
G1 X141.632 Y86.9 E1.85419
G1 X142.042 Y86.721 E1.87029
G1 X142.196 Y86.764 E1.87605
G1 X142.397 Y87.182 E1.89275
G1 X142.733 Y88.181 E1.93069
G1 X142.802 Y88.522 E1.94321
G1 X142.867 Y89.178 E1.96694
G1 X143.16 Y90.331 E2.00977
G1 X143.239 Y90.894 E2.03024
G1 X143.332 Y92.033 E2.07138
G1 X143.404 Y92.569 E2.09085
G1 X143.765 Y93.66 E2.13222
G1 X144.359 Y95 E2.18499
G1 X144.353 Y95.292 E2.1955
G1 X144.417 Y95.639 E2.2082
G1 X144.975 Y96.965 E2.25999
G1 X145.968 Y98.501 E2.32583
G1 X146.356 Y99.058 E2.35027
G1 X147.837 Y100.476 E2.42408
G1 X148.376 Y101.18 E2.456
G1 X148.798 Y101.829 E2.48387
G1 X149.306 Y102.878 E2.52583
G1 X149.729 Y103.834 E2.56346
G1 X149.99 Y104.774 E2.59858
G1 X150.132 Y106.225 E2.65106
G1 X150.392 Y107.203 E2.68749
G1 X150.572 Y107.792 E2.70966
G1 X150.531 Y107.857 E2.71243
G1 X150.613 Y108.114 E2.72214
G1 X150.598 Y108.68 E2.74252
G1 X150.652 Y109.553 E2.77401
G1 X150.528 Y110.451 E2.80664
G1 X150.487 Y111.004 E2.8266
G1 X150.359 Y111.731 E2.85317
G1 X150.33 Y112.231 E2.8712
G1 X150.009 Y113.44 E2.91623
G1 X150.044 Y114.007 E2.93668
G1 X149.818 Y115.311 E2.98432
G1 X149.79 Y116.699 E3.0343
G1 X149.609 Y118.455 E3.09785
G1 X149.532 Y119.94 E3.15138
G1 X149.767 Y121.866 E3.22123
G1 X150.369 Y123.607 E3.28754
G1 X150.709 Y125.099 E3.34263
G1 X150.854 Y125.525 E3.35883
G1 X150.931 Y125.939 E3.37399
G1 X151.09 Y126.456 E3.39346
G1 X151.11 Y126.76 E3.40443
G1 X151.311 Y127.872 E3.44511
G1 X151.555 Y128.786 E3.47917
G1 X151.616 Y129.365 E3.50013
G1 X150.923 Y130.182 E3.5387
G1 X149.942 Y130.876 E3.58196
G1 X149.45 Y131.172 E3.60263
G1 X148.988 Y131.388 E3.62099
G1 X147.958 Y131.787 E3.66075
G1 X144.804 Y133.418 E3.78857
G1 X142.839 Y134.714 E3.87331
G1 X142.036 Y135.521 E3.91429
G1 X141.453 Y135.968 E3.94074
G1 X140.229 Y135.157 E3.9936
G1 X139.924 Y135.099 E4.00478
G1 X139.655 Y135.14 E4.01458
G1 X139.349 Y135.312 E4.02722
G1 X139.059 Y135.678 E4.04403
G1 X138.965 Y136.016 E4.05666
G1 X139.015 Y136.367 E4.06942
G1 X139.225 Y136.693 E4.08338
G1 X139.931 Y137.38 E4.11884
G1 X139.075 Y138.218 E4.16196
G1 X138.002 Y139.471 E4.22135
G1 X136.639 Y140.917 E4.29288
G1 X136.03 Y141.385 E4.32053
G1 X135.149 Y142.236 E4.36462
G1 X133.177 Y143.582 E4.45057
G1 X132.083 Y144.119 E4.49444
G1 X130.764 Y144.607 E4.54507
G1 X129.808 Y145.155 E4.58474
G1 X128.924 Y145.471 E4.61854
G1 X127.335 Y145.889 E4.67769
G1 X125.694 Y146.384 E4.73939
G1 X125.444 Y145.997 E4.75598
G1 X125.209 Y145.883 E4.76538
G1 X124.862 Y145.849 E4.77793
G1 X124.522 Y145.96 E4.79081
G1 X124.257 Y146.196 E4.80358
G1 X123.52 Y147.196 E4.8483
G1 X122.985 Y147.402 E4.86894
G1 X121.562 Y147.827 E4.9224
G1 X120.62 Y147.811 E4.95632
G1 X120.112 Y147.766 E4.97468
G1 X119.004 Y147.584 E5.0151
G1 X118.568 Y147.357 E5.0328
G1 X118.213 Y147.312 E5.04568
G1 X117.017 Y147.419 E5.08891
G1 X115.902 Y147.341 E5.12915
G1 X115.154 Y147.39 E5.15613
G1 X113.828 Y147.439 E5.2039
G1 X111.907 Y147.714 E5.27376
G1 X111.444 Y147.814 E5.29081
G1 X109.211 Y148.604 E5.37608
G1 X107.9 Y149.244 E5.4286
G1 X107.138 Y149.184 E5.45612
G1 X105.978 Y148.673 E5.50175
G1 X104.835 Y148.016 E5.54921
G1 X104.235 Y147.553 E5.57649
G1 X103.787 Y147.235 E5.59627
G1 X105.805 Y145.357 E5.69551
G1 X105.992 Y145.106 E5.70678
G1 X106.08 Y144.733 E5.72058
G1 X106.044 Y144.475 E5.72996
G1 X105.889 Y144.181 E5.74192
G1 X105.579 Y143.878 E5.75752
G1 X105.251 Y143.757 E5.77011
G1 X104.904 Y143.775 E5.78262
G1 X104.592 Y143.928 E5.79513
G1 X101.858 Y146.042 E5.91954
G1 X101.36 Y145.775 E5.93988
G1 X100.881 Y145.65 E5.9577
G1 X99.755 Y145.213 E6.00118
G1 X99.265 Y144.987 E6.02061
G1 X98.44 Y144.496 E6.05517
G1 X96.744 Y143.306 E6.12975
G1 X95.509 Y142.567 E6.18156
G1 X94.121 Y141.696 E6.24055
G1 X93.81 Y141.399 E6.25603
G1 X93.708 Y141.374 E6.25981
G1 X93.234 Y140.913 E6.28361
G1 X91.953 Y139.926 E6.34182
G1 X90.91 Y139.082 E6.39012
G1 X89.715 Y138.247 E6.4426
G1 X88.895 Y137.723 E6.47763
G1 X87.464 Y136.865 E6.53769
G1 X86.411 Y136.33 E6.58021
G1 X85.332 Y135.716 E6.6249
G1 X84.565 Y135.138 E6.65947
G1 X83.91 Y134.314 E6.69736
G1 X83.503 Y133.529 E6.72919
G1 X83.227 Y132.171 E6.77908
G1 X83.264 Y130.856 E6.82644
G1 X83.187 Y130.589 E6.83644
G1 X83.034 Y130.477 E6.84327
G1 X82.98 Y129.845 E6.8661
G1 X82.868 Y129.323 E6.88532
G1 X82.742 Y128.524 E6.91444
G1 X82.85 Y127.933 E6.93607
G1 X82.913 Y127.037 E6.9684
G1 X82.817 Y126.543 E6.98652
G1 X82.95 Y125.788 E7.01412
G1 X83.031 Y123.711 E7.08895
G1 X83.48 Y121.85 E7.15787
G1 X83.945 Y120.697 E7.20262
G1 X84.404 Y119.107 E7.2622
G1 X84.438 Y118.873 E7.27071
G1 X84.45 Y116.872 E7.34274
G1 X84.35 Y116.528 E7.35564
G1 X82.972 Y113.959 E7.46059
G1 X81.313 Y111.493 E7.56758
G1 X80.845 Y109.924 E7.62652
G1 X80.567 Y108.852 E7.66639
G1 X80.798 Y107.955 E7.69973
G1 X81.275 Y106.881 E7.74203
G1 X82.126 Y105.385 E7.80399
G1 X83.09 Y103.745 E7.87247
G1 X83.302 Y103.291 E7.89051
G1 X83.836 Y102.298 E7.9311
G1 X84.132 Y101.82 E7.95134
G1 X84.95 Y100.775 E7.99911
G1 X85.374 Y100.382 E8.01992
G1 X86.722 Y99.304 E8.08206
G1 X87.632 Y98.461 E8.12672
G1 X88.229 Y97.966 E8.15464
G1 X89.448 Y97.718 E8.19942
G1 X89.731 Y97.565 E8.211
G1 X89.955 Y97.291 E8.22374
G1 X90.42 Y96.397 E8.26002
G1 X91.194 Y95.95 E8.2922
G1 X93.296 Y94.564 E8.38284
G1 X94.916 Y93.684 E8.44921
G1 X96.609 Y93.675 E8.51016
G1 X99.897 Y93.767 E8.62857
G1 X100.402 Y93.673 E8.64706
G1 X100.643 Y93.59 E8.65624
G1 X102.619 Y92.557 E8.73651
G1 X104.072 Y91.829 E8.79501
G1 X107.055 Y90.035 E8.92032
G1 X108.074 Y89.47 E8.96226
G1 X110.592 Y87.898 E9.06912
G1 X111.251 Y87.46 E9.09761
G1 X113.858 Y85.889 E9.20718
G1 X116.605 Y84.018 E9.32683
G1 X118.137 Y83.477 E9.38532
G1 X120.087 Y83.231 E9.45607
G1 X120.294 Y83.178 E9.46376
G1 X122.066 Y82.486 E9.53224
G1 X122.678 Y82.281 E9.55547
G1 X125.178 Y81.564 E9.6491
G1 X127.085 Y80.824 E9.72274
G1 X127.867 Y81.202 E9.75401
G1 X128.88 Y81.434 E9.79142
G1 X129.132 Y81.558 E9.80153
G1 X129.202 Y81.655 E9.80584
G1 X129.281 Y82.478 E9.8356
G1 X129.359 Y82.785 E9.847
G1 X129.743 Y83.993 E9.89263
G1 X130.164 Y85.127 E9.93618
G1 X130.812 Y86.265 E9.98332
G1 X131.107 Y87.015 E10.01233
G1 X131.42 Y87.365 E10.02923
G1 X132.152 Y88.037 E10.065
G1 X132.333 Y87.736 F9000
G1 F1200
G1 X132.446 Y87.806 E10.06979
G1 X132.719 Y87.825 E10.07964
G1 X133.59 Y87.653 E10.1116
G1 X134.396 Y87.529 E10.14096
G1 X136.825 Y86.648 E10.23397
G1 X137.015 Y86.664 E10.24083
G1 X137.958 Y86.895 E10.27578
G1 X138.207 Y87.011 E10.28567
G1 X138.477 Y87.092 E10.29582
G1 X139.554 Y87.131 E10.33462
G1 X140.114 Y87.202 E10.35494
G1 X140.402 Y87.146 E10.3655
G1 X141.503 Y86.577 E10.41011
G1 X141.975 Y86.373 E10.42862
G1 X142.44 Y86.471 E10.44573
G1 X142.719 Y87.051 E10.4689
G1 X143.13 Y88.277 E10.51545
G1 X143.202 Y89.093 E10.54494
G1 X143.501 Y90.264 E10.58845
G1 X143.582 Y90.847 E10.60964
G1 X143.625 Y91.454 E10.63155
G1 X143.733 Y92.461 E10.66801
G1 X144.113 Y93.601 E10.71127
G1 X144.538 Y94.525 E10.74788
G1 X144.707 Y94.947 E10.76424
G1 X144.699 Y95.3 E10.77695
G1 X144.737 Y95.508 E10.78456
G1 X145.266 Y96.777 E10.83405
G1 X146.596 Y98.808 E10.92145
G1 X148.096 Y100.244 E10.9962
G1 X148.838 Y101.215 E11.04019
G1 X149.104 Y101.665 E11.05901
G1 X149.62 Y102.733 E11.10171
G1 X150.056 Y103.717 E11.14045
G1 X150.332 Y104.712 E11.17762
G1 X150.467 Y106.136 E11.22911
G1 X150.723 Y107.102 E11.26509
G1 X150.92 Y107.745 E11.2893
G1 X150.875 Y107.815 E11.2923
G1 X150.96 Y108.096 E11.30287
G1 X150.943 Y108.649 E11.32279
G1 X150.997 Y109.589 E11.35668
G1 X150.871 Y110.499 E11.38975
G1 X150.831 Y111.044 E11.40942
G1 X150.701 Y111.788 E11.43661
G1 X150.674 Y112.288 E11.45464
G1 X150.376 Y113.315 E11.49314
G1 X150.356 Y113.496 E11.4997
G1 X150.393 Y114.027 E11.51886
G1 X150.164 Y115.313 E11.56588
G1 X150.136 Y116.72 E11.61654
G1 X149.955 Y118.476 E11.68009
G1 X149.876 Y119.902 E11.7315
G1 X150.094 Y121.753 E11.79859
G1 X150.702 Y123.512 E11.86559
G1 X151.046 Y125.022 E11.92134
G1 X151.189 Y125.434 E11.93704
G1 X151.272 Y125.876 E11.95323
G1 X151.434 Y126.39 E11.97263
G1 X151.451 Y126.7 E11.98381
G1 X151.646 Y127.783 E12.02342
G1 X151.909 Y128.84 E12.06263
G1 X151.96 Y129.462 E12.0851
G1 X151.874 Y129.61 E12.09126
G1 X151.158 Y130.44 E12.13072
G1 X150.142 Y131.159 E12.17553
G1 X149.618 Y131.475 E12.19756
G1 X149.111 Y131.711 E12.21769
G1 X148.117 Y132.095 E12.25605
G1 X144.998 Y133.704 E12.38239
G1 X142.937 Y135.08 E12.4716
G1 X142.372 Y135.679 E12.50124
G1 X141.98 Y136.018 E12.5199
G1 X141.457 Y136.391 E12.54303
G1 X140.169 Y135.51 E12.59921
G1 X139.922 Y135.445 E12.6084
G1 X139.663 Y135.512 E12.61803
G1 X139.428 Y135.743 E12.62989
G1 X139.319 Y135.977 E12.63918
G1 X139.341 Y136.249 E12.649
G1 X139.467 Y136.445 E12.65739
G1 X140.428 Y137.381 E12.70568
G1 X139.338 Y138.443 E12.76046
G1 X138.26 Y139.703 E12.82015
G1 X136.871 Y141.175 E12.89301
G1 X136.27 Y141.634 E12.92023
G1 X135.368 Y142.506 E12.96539
G1 X133.352 Y143.882 E13.05326
G1 X132.218 Y144.438 E13.09873
G1 X130.936 Y144.908 E13.14788
G1 X129.954 Y145.471 E13.18863
G1 X129.026 Y145.802 E13.2241
G1 X127.436 Y146.22 E13.28328
G1 X125.498 Y146.805 E13.35615
G1 X125.466 Y146.62 E13.36291
G1 X125.248 Y146.282 E13.37739
G1 X125.014 Y146.194 E13.38639
G1 X124.751 Y146.232 E13.39596
G1 X124.536 Y146.402 E13.40583
G1 X123.739 Y147.483 E13.45418
G1 X123.098 Y147.73 E13.47891
G1 X121.614 Y148.173 E13.53466
G1 X120.604 Y148.157 E13.57102
G1 X120.066 Y148.11 E13.59046
G1 X118.889 Y147.916 E13.6334
G1 X118.487 Y147.697 E13.64988
G1 X118.243 Y147.658 E13.65878
G1 X117.019 Y147.767 E13.70302
G1 X115.924 Y147.687 E13.74254
G1 X115.171 Y147.736 E13.7697
G1 X113.878 Y147.781 E13.81627
G1 X111.558 Y148.141 E13.90079
G1 X109.363 Y148.916 E13.98459
G1 X108.048 Y149.557 E14.03725
G1 X107.882 Y149.59 E14.04334
G1 X107.046 Y149.522 E14.07353
G1 X105.822 Y148.983 E14.12168
G1 X104.633 Y148.298 E14.17108
G1 X104.035 Y147.836 E14.19828
G1 X103.24 Y147.272 E14.23337
G1 X105.599 Y145.074 E14.34944
G1 X105.724 Y144.824 E14.3595
G1 X105.704 Y144.548 E14.36946
G1 X105.519 Y144.278 E14.38124
G1 X105.306 Y144.127 E14.39064
G1 X105.031 Y144.102 E14.40058
G1 X104.804 Y144.202 E14.40951
G1 X101.892 Y146.454 E14.54203
G1 X101.197 Y146.08 E14.57044
G1 X100.79 Y145.986 E14.58548
G1 X99.578 Y145.517 E14.63226
G1 X99.094 Y145.289 E14.65152
G1 X98.252 Y144.786 E14.68683
G1 X96.566 Y143.603 E14.76097
G1 X95.328 Y142.862 E14.81291
G1 X93.906 Y141.97 E14.87334
G1 X93.593 Y141.669 E14.88897
G1 X93.5 Y141.655 E14.89236
G1 X93.024 Y141.188 E14.91637
G1 X91.735 Y140.195 E14.97494
G1 X90.711 Y139.366 E15.02237
G1 X89.529 Y138.539 E15.0743
G1 X88.708 Y138.015 E15.10936
G1 X87.307 Y137.174 E15.16818
G1 X86.247 Y136.635 E15.21099
G1 X85.141 Y136.006 E15.25679
G1 X84.321 Y135.388 E15.29375
G1 X83.618 Y134.504 E15.33441
G1 X83.174 Y133.647 E15.36916
G1 X82.966 Y132.689 E15.40445
G1 X82.879 Y132.196 E15.42247
G1 X82.924 Y130.978 E15.46635
G1 X82.881 Y130.752 E15.47463
G1 X82.698 Y130.624 E15.48267
G1 X82.642 Y129.922 E15.50802
G1 X82.527 Y129.386 E15.52775
G1 X82.391 Y128.518 E15.55938
