; generated by PrusaSlicer 2.7.0-alpha1+win64 on 2023-11-12 at 17:50:30 UTC


;
;

;
;
; 

; external perimeters extrusion width = 0.40mm
; perimeters extrusion width = 0.40mm
; infill extrusion width = 0.40mm
; solid infill extrusion width = 0.40mm
; top infill extrusion width = 0.38mm
; support material extrusion width = 0.40mm
; first layer extrusion width = 0.40mm


EXCLUDE_OBJECT_DEFINE NAME=duotone_adapter_v12_stl CENTER=115.002,114.999 POLYGON=[[115.628,100.013],[118.108,100.325],[119.717,100.760],[121.269,101.371],[122.742,102.151],[124.121,103.089],[125.972,104.768],[127.039,106.049],[127.958,107.440],[129.034,109.696],[129.720,112.099],[129.951,113.750],[129.997,115.417],[129.720,117.901],[129.307,119.516],[128.717,121.076],[127.958,122.560],[127.039,123.951],[125.386,125.825],[124.121,126.911],[122.742,127.849],[120.501,128.956],[118.919,129.480],[117.288,129.825],[114.794,129.999],[113.131,129.883],[111.491,129.583],[109.118,128.798],[106.909,127.629],[105.558,126.653],[104.323,125.533],[102.722,123.613],[101.842,122.197],[101.125,120.692],[100.579,119.117],[100.211,117.491],[100.003,115.000],[100.211,112.509],[100.579,110.883],[101.125,109.308],[101.842,107.803],[102.722,106.387],[103.754,105.077],[104.925,103.890],[106.220,102.840],[107.624,101.941],[109.894,100.897],[111.491,100.417],[113.131,100.117]]

M190 S60 ; set bed temperature and wait for it to be reached
M104 S200 ; set temperature
;TYPE:Custom
G28 ; home all axes
;G29 ; Autocalibración
M420 S1; Load Auto bed level
G1 X5 Y10 Z0.2 F3000 ; get ready to prime
G92 E0 ; reset extrusion distance
;M92 E411 ; Ajuste de pasos de el extrusor 20230420
;M92 E413.06533 ; Ajuste de pasos de el extrusor 20230510
M92 E400.0 ; Ajuste de pasos de el extrusor de fabrica
G1 X120 E15 F600 ; prime nozzle
G1 X180 F5000 ; quick wipe
M109 S200 ; set temperature and wait for it to be reached
G21 ; set units to millimeters
G90 ; use absolute coordinates
M82 ; use absolute distances for extrusion
G92 E0
; Filament gcode
; M900 K0.035 ; Linear Advance
M107
;LAYER_CHANGE
;Z:0.25
;HEIGHT:0.25

G1 Z.25 F9000
;AFTER_LAYER_CHANGE
;0.25
G1 E-1.5 F1800
G92 E0
G1 X101.368 Y101.288 F9000
G1 E1.5 F1800
;TYPE:Skirt/Brim
;WIDTH:0.4
G1 F1200
G1 X102.78 Y100.016 E1.56602
G1 X104.047 Y99.065 E1.62105
G1 X105.536 Y98.135 E1.68204
G1 X107.01 Y97.484 E1.73802
G1 X111.66 Y96.04 E1.90717
G1 X113.235 Y95.742 E1.96285
G1 X115.542 Y95.67 E2.04303
G1 X117.462 Y95.819 E2.10993
G1 X119.044 Y96.089 E2.16568
G1 X120.905 Y96.585 E2.23259
G1 X123.099 Y97.439 E2.31438
G1 X124.528 Y98.171 E2.37016
G1 X126.154 Y99.202 E2.43704
G1 X127.427 Y100.181 E2.49283
G1 X128.839 Y101.49 E2.55972
G1 X130.253 Y103.114 E2.63452
G1 X131.298 Y104.587 E2.69726
G1 X132.253 Y106.26 E2.76418
G1 X132.918 Y107.721 E2.81994
G1 X133.553 Y109.539 E2.88684
G1 X133.942 Y111.097 E2.94262
G1 X134.237 Y113 E3.00952
G1 X134.337 Y115.351 E3.09126
G1 X134.241 Y116.954 E3.14705
G1 X133.952 Y118.858 E3.21395
G1 X133.566 Y120.417 E3.26974
G1 X132.771 Y122.632 E3.35149
G1 X131.924 Y124.361 E3.41837
G1 X130.661 Y126.348 E3.50016
G1 X129.663 Y127.611 E3.55608
G1 X128.336 Y129.006 E3.62296
G1 X127.13 Y130.063 E3.67867
G1 X124.699 Y131.734 E3.78115
G1 X123.226 Y132.408 E3.83742
G1 X118.576 Y133.917 E4.00725
G1 X117.002 Y134.236 E4.06304
G1 X114.732 Y134.336 E4.14197
G1 X112.415 Y134.164 E4.22268
G1 X110.545 Y133.817 E4.28875
G1 X109.019 Y133.388 E4.34382
G1 X107.242 Y132.712 E4.40987
G1 X105.817 Y132.017 E4.46495
G1 X104.19 Y131.032 E4.53102
G1 X102.913 Y130.093 E4.58608
G1 X101.19 Y128.533 E4.66682
G1 X99.928 Y127.112 E4.73284
G1 X98.986 Y125.836 E4.78794
G1 X97.802 Y123.836 E4.86868
G1 X97.018 Y122.105 E4.93469
G1 X96.496 Y120.607 E4.9898
G1 X96.035 Y118.763 E5.05583
G1 X95.79 Y117.196 E5.11093
G1 X95.666 Y114.878 E5.19157
G1 X95.771 Y112.977 E5.25771
G1 X96.002 Y111.409 E5.31277
G1 X96.57 Y109.156 E5.39349
G1 X97.233 Y107.374 E5.45954
G1 X97.917 Y105.944 E5.51461
G1 X99.127 Y103.959 E5.59537
G1 X100.288 Y102.454 E5.6614
G1 X101.327 Y101.332 E5.71452
G1 X101.581 Y101.567 F9000
G1 F1200
G1 X101.607 Y101.538 E5.71587
G1 X103.004 Y100.28 E5.78118
G1 X104.238 Y99.355 E5.83475
G1 X105.711 Y98.434 E5.8951
G1 X107.112 Y97.815 E5.94831
G1 X111.762 Y96.371 E6.11746
G1 X113.26 Y96.087 E6.17043
G1 X115.525 Y96.016 E6.24915
G1 X117.424 Y96.164 E6.31532
G1 X118.965 Y96.427 E6.36963
G1 X120.806 Y96.917 E6.43581
G1 X122.96 Y97.756 E6.51611
G1 X124.351 Y98.469 E6.57041
G1 X125.96 Y99.488 E6.63657
G1 X127.199 Y100.442 E6.69089
G1 X128.596 Y101.737 E6.75706
G1 X129.641 Y102.9 E6.81137
G1 X130.779 Y104.427 E6.87753
G1 X131.595 Y105.761 E6.93185
G1 X132.595 Y107.845 E7.01215
G1 X133.223 Y109.643 E7.07831
G1 X133.602 Y111.16 E7.13263
G1 X133.893 Y113.042 E7.19879
G1 X133.991 Y115.352 E7.27911
G1 X133.898 Y116.913 E7.33343
G1 X133.611 Y118.795 E7.39956
G1 X133.236 Y120.313 E7.45388
G1 X132.455 Y122.489 E7.53419
G1 X131.416 Y124.554 E7.61449
G1 X130.377 Y126.15 E7.68065
G1 X129.405 Y127.38 E7.73511
G1 X128.093 Y128.76 E7.80126
G1 X126.918 Y129.789 E7.85552
G1 X124.52 Y131.438 E7.95662
G1 X123.119 Y132.079 E8.01014
G1 X118.469 Y133.588 E8.17997
G1 X116.973 Y133.891 E8.23299
G1 X114.744 Y133.99 E8.3105
G1 X112.467 Y133.821 E8.38982
G1 X110.618 Y133.478 E8.45515
G1 X109.132 Y133.061 E8.50877
G1 X107.375 Y132.392 E8.57408
G1 X105.987 Y131.715 E8.62773
G1 X104.378 Y130.741 E8.69307
G1 X103.135 Y129.827 E8.74667
G1 X101.442 Y128.296 E8.82596
G1 X100.194 Y126.889 E8.89129
G1 X99.277 Y125.647 E8.94492
G1 X98.301 Y124.04 E9.01023
G1 X97.337 Y121.971 E9.08952
G1 X96.829 Y120.513 E9.14316
G1 X96.373 Y118.689 E9.20847
G1 X96.135 Y117.164 E9.26209
G1 X96.012 Y114.886 E9.34134
G1 X96.116 Y113.007 E9.40671
G1 X96.341 Y111.48 E9.46033
G1 X96.898 Y109.267 E9.5396
G1 X97.553 Y107.504 E9.60493
G1 X98.22 Y106.112 E9.65855
G1 X99.407 Y104.163 E9.73782
G1 X100.556 Y102.673 E9.80318
G1 X101.54 Y101.611 E9.85347
G1 X101.794 Y101.846 F9000
G1 F1200
G1 X101.847 Y101.788 E9.8562
G1 X103.228 Y100.544 E9.92077
G1 X104.428 Y99.644 E9.97288
G1 X105.886 Y98.733 E10.0326
G1 X107.215 Y98.146 E10.08307
G1 X111.865 Y96.701 E10.25223
G1 X113.285 Y96.433 E10.30243
G1 X115.509 Y96.362 E10.37973
G1 X117.387 Y96.508 E10.44517
G1 X118.887 Y96.764 E10.49803
G1 X120.707 Y97.249 E10.56346
G1 X122.821 Y98.073 E10.64228
G1 X124.175 Y98.767 E10.69514
G1 X125.766 Y99.775 E10.76057
G1 X126.971 Y100.703 E10.81341
G1 X128.353 Y101.984 E10.87887
G1 X129.835 Y103.702 E10.95769
G1 X130.707 Y104.949 E11.01055
G1 X131.641 Y106.585 E11.07599
G1 X132.271 Y107.969 E11.12882
G1 X132.893 Y109.747 E11.19426
G1 X133.261 Y111.223 E11.2471
G1 X133.549 Y113.085 E11.31255
G1 X133.645 Y115.352 E11.39137
G1 X133.554 Y116.871 E11.44423
G1 X133.27 Y118.733 E11.50966
G1 X132.742 Y120.733 E11.58152
G1 X132.14 Y122.346 E11.64133
G1 X131.12 Y124.374 E11.72019
G1 X130.092 Y125.952 E11.78561
G1 X129.146 Y127.149 E11.83861
G1 X127.849 Y128.513 E11.904
G1 X126.706 Y129.515 E11.9568
G1 X124.34 Y131.142 E12.05655
G1 X123.012 Y131.749 E12.10727
G1 X118.362 Y133.259 E12.27711
G1 X116.943 Y133.546 E12.3274
G1 X114.755 Y133.643 E12.40348
G1 X112.52 Y133.479 E12.48133
G1 X110.692 Y133.14 E12.54592
G1 X109.246 Y132.734 E12.59809
G1 X107.508 Y132.072 E12.6627
G1 X106.158 Y131.413 E12.71489
G1 X104.567 Y130.451 E12.77948
G1 X103.357 Y129.56 E12.83168
G1 X101.694 Y128.058 E12.90953
G1 X100.46 Y126.667 E12.97413
G1 X99.568 Y125.459 E13.0263
G1 X98.602 Y123.869 E13.09093
G1 X97.657 Y121.838 E13.16875
G1 X97.163 Y120.419 E13.22095
G1 X96.712 Y118.615 E13.28555
G1 X96.48 Y117.131 E13.33773
G1 X96.358 Y114.895 E13.41552
G1 X96.461 Y113.037 E13.48016
G1 X96.68 Y111.551 E13.53234
G1 X97.226 Y109.378 E13.61017
G1 X97.874 Y107.635 E13.67477
G1 X98.523 Y106.28 E13.72696
G1 X99.688 Y104.366 E13.8048
G1 X100.823 Y102.893 E13.8694
G1 X101.753 Y101.89 E13.91692
EXCLUDE_OBJECT_START NAME=duotone_adapter_v12_stl
G1 E12.41692 F1800
G92 E0
G1 X115.841 Y126.064 F9000
G1 E1.5 F1800
;TYPE:Perimeter
;WIDTH:0.399999
G1 F1200
G1 X115.857 Y126.079 E1.50076
G1 X115.857 Y126.72 E1.52303
G1 X114.957 Y126.754 E1.55432
G1 X114.251 Y126.73 E1.57886
G1 X113.547 Y126.663 E1.60343
G1 X112.882 Y126.552 E1.62685
G1 X112.153 Y126.403 E1.6527
G1 X111.446 Y126.202 E1.67823
G1 X110.751 Y125.956 E1.70384
G1 X110.079 Y125.661 E1.72933
G1 X109.39 Y125.323 E1.75599
G1 X108.909 Y125.051 E1.77519
G1 X108.164 Y124.554 E1.8063
G1 X107.59 Y124.116 E1.83138
G1 X107.205 Y123.794 E1.84882
G1 X106.834 Y123.445 E1.86651
G1 X106.203 Y122.791 E1.89808
G1 X105.754 Y122.253 E1.92242
G1 X105.452 Y121.843 E1.94011
G1 X104.948 Y121.086 E1.9717
G1 X104.603 Y120.476 E1.99605
G1 X104.379 Y120.018 E2.01376
G1 X104.019 Y119.184 E2.04532
G1 X103.789 Y118.521 E2.0697
G1 X103.598 Y117.841 E2.09424
G1 X103.448 Y117.151 E2.11877
G1 X103.339 Y116.453 E2.14331
G1 X103.273 Y115.749 E2.16787
G1 X103.249 Y115.044 E2.19238
G1 X103.27 Y114.31 E2.21789
G1 X103.329 Y113.633 E2.2415
G1 X103.445 Y112.873 E2.26821
G1 X103.602 Y112.152 E2.29384
G1 X103.803 Y111.443 E2.31944
G1 X104.049 Y110.748 E2.34505
G1 X104.337 Y110.07 E2.37064
G1 X104.668 Y109.41 E2.39629
G1 X105.04 Y108.773 E2.42192
G1 X105.452 Y108.167 E2.44738
G1 X105.898 Y107.575 E2.47313
G1 X106.382 Y107.019 E2.49874
G1 X106.899 Y106.493 E2.52436
G1 X107.464 Y105.989 E2.55066
G1 X108.004 Y105.563 E2.57455
G1 X108.551 Y105.181 E2.59773
G1 X108.551 Y106.007 E2.62642
G1 X107.847 Y106.54 E2.65709
G1 X107.33 Y107.006 E2.68127
G1 X106.843 Y107.504 E2.70547
G1 X106.388 Y108.031 E2.72966
G1 X105.968 Y108.586 E2.75384
G1 X105.485 Y109.334 E2.78477
G1 X105.162 Y109.915 E2.80786
G1 X104.874 Y110.515 E2.83098
G1 X104.623 Y111.13 E2.85406
G1 X104.409 Y111.76 E2.87717
G1 X104.233 Y112.401 E2.90026
G1 X104.094 Y113.06 E2.92366
G1 X103.937 Y114.426 E2.97143
G1 X103.923 Y115.123 E2.99565
G1 X103.953 Y115.818 E3.01982
G1 X104.026 Y116.511 E3.04403
G1 X104.142 Y117.197 E3.0682
G1 X104.302 Y117.875 E3.0924
G1 X104.503 Y118.541 E3.11657
G1 X104.747 Y119.193 E3.14075
G1 X105.03 Y119.829 E3.16493
G1 X105.353 Y120.446 E3.18912
G1 X105.714 Y121.041 E3.2133
G1 X106.293 Y121.841 E3.24761
G1 X106.713 Y122.334 E3.27011
G1 X107.659 Y123.291 E3.31686
G1 X108.169 Y123.717 E3.33994
G1 X108.605 Y124.046 E3.35891
G1 X109.836 Y124.8 E3.40906
G1 X110.398 Y125.078 E3.43084
G1 X111.051 Y125.352 E3.45544
G1 X111.698 Y125.576 E3.47922
G1 X112.369 Y125.763 E3.50342
G1 X113.16 Y125.923 E3.53145
G1 X113.739 Y126.008 E3.55178
G1 X114.432 Y126.066 E3.57594
G1 X115.129 Y126.08 E3.60016
G1 X115.786 Y126.052 E3.623
G1 X116.203 Y125.662 F9000
;TYPE:External perimeter
G1 F1200
G1 X116.203 Y126.079 E3.63749
G1 X116.203 Y127.038 E3.6708
G1 X115.538 Y127.085 E3.69396
G1 X114.945 Y127.1 E3.71457
G1 X114.218 Y127.074 E3.73984
G1 X113.494 Y127.005 E3.7651
G1 X112.813 Y126.892 E3.78908
G1 X112.06 Y126.736 E3.81579
G1 X111.332 Y126.529 E3.84208
G1 X110.618 Y126.276 E3.86839
G1 X109.931 Y125.975 E3.89445
G1 X109.219 Y125.624 E3.92203
G1 X108.721 Y125.341 E3.94193
G1 X107.958 Y124.833 E3.97377
G1 X107.356 Y124.372 E4.00011
G1 X106.968 Y124.047 E4.01769
G1 X106.585 Y123.686 E4.03597
G1 X105.937 Y123.013 E4.06842
G1 X105.475 Y122.459 E4.09348
G1 X105.163 Y122.035 E4.11177
G1 X104.646 Y121.257 E4.14422
G1 X104.292 Y120.628 E4.16929
G1 X104.061 Y120.156 E4.18755
G1 X103.692 Y119.297 E4.22003
G1 X103.456 Y118.616 E4.24507
G1 X103.259 Y117.915 E4.27037
G1 X103.105 Y117.204 E4.29564
G1 X102.995 Y116.485 E4.32091
G1 X102.927 Y115.761 E4.34617
G1 X102.903 Y115.035 E4.3714
G1 X102.925 Y114.28 E4.39764
G1 X102.986 Y113.582 E4.42198
G1 X103.106 Y112.802 E4.4494
G1 X103.268 Y112.061 E4.47575
G1 X103.475 Y111.332 E4.50208
G1 X103.728 Y110.617 E4.52843
G1 X104.025 Y109.92 E4.55475
G1 X104.366 Y109.242 E4.58111
G1 X104.747 Y108.587 E4.60743
G1 X105.437 Y107.591 E4.64952
G1 X105.895 Y107.034 E4.67457
G1 X106.393 Y106.499 E4.69996
G1 X106.918 Y105.997 E4.72519
G1 X107.474 Y105.528 E4.75046
G1 X108.052 Y105.095 E4.77555
G1 X108.898 Y104.556 E4.8104
G1 X108.898 Y106.18 E4.86682
G1 X108.079 Y106.798 E4.90246
G1 X107.577 Y107.249 E4.9259
G1 X107.105 Y107.73 E4.94931
G1 X106.664 Y108.241 E4.97276
G1 X106.256 Y108.778 E4.99619
G1 X105.785 Y109.508 E5.02637
G1 X105.472 Y110.07 E5.04872
G1 X105.193 Y110.649 E5.07105
G1 X104.95 Y111.245 E5.09341
G1 X104.742 Y111.854 E5.11577
G1 X104.571 Y112.474 E5.13811
G1 X104.438 Y113.1 E5.16034
G1 X104.284 Y114.434 E5.20699
G1 X104.269 Y115.108 E5.23041
G1 X104.297 Y115.782 E5.25384
G1 X104.367 Y116.453 E5.27728
G1 X104.48 Y117.118 E5.30071
G1 X104.633 Y117.775 E5.32414
G1 X104.828 Y118.421 E5.34758
G1 X105.063 Y119.053 E5.371
G1 X105.337 Y119.669 E5.39442
G1 X105.65 Y120.267 E5.41787
G1 X105.999 Y120.844 E5.4413
G1 X106.564 Y121.626 E5.47481
G1 X106.963 Y122.095 E5.4962
G1 X107.885 Y123.029 E5.54179
G1 X108.379 Y123.442 E5.56416
G1 X108.787 Y123.752 E5.58196
G1 X109.99 Y124.49 E5.63099
G1 X110.533 Y124.759 E5.65204
G1 X111.166 Y125.025 E5.67589
G1 X111.791 Y125.243 E5.69888
G1 X112.441 Y125.424 E5.72232
G1 X113.211 Y125.581 E5.74962
G1 X113.768 Y125.663 E5.76918
G1 X114.438 Y125.719 E5.79254
G1 X114.983 Y125.731 E5.81148
G1 X115.491 Y125.718 E5.82913
G1 X116.143 Y125.666 E5.85185
G1 X116.203 Y126.062 F9000
G1 E4.35185 F1800
G92 E0
G1 X108.209 Y105.837 F9000
G1 E1.5 F1800
;TYPE:Perimeter
;WIDTH:0.391068
G1 F1200
G1 X107.68 Y106.244 E1.52259
;WIDTH:0.376716
G1 X107.13 Y106.735 E1.54648
;WIDTH:0.375666
G1 X106.627 Y107.246 E1.56964
G1 X106.156 Y107.787 E1.59281
G1 X105.723 Y108.358 E1.61596
;WIDTH:0.376024
G1 X105.322 Y108.953 E1.63916
;WIDTH:0.376326
G1 X104.961 Y109.573 E1.66238
;WIDTH:0.376722
G1 X104.639 Y110.214 E1.68562
;WIDTH:0.377174
G1 X104.359 Y110.874 E1.70888
;WIDTH:0.377734
G1 X104.121 Y111.55 E1.73218
;WIDTH:0.378372
G1 X103.926 Y112.241 E1.75556
;WIDTH:0.37909
G1 X103.774 Y112.942 E1.77897
;WIDTH:0.401228
G1 X103.606 Y114.338 E1.82799
;WIDTH:0.381612
G1 X103.586 Y115.053 E1.85152
;WIDTH:0.382424
G1 X103.61 Y115.738 E1.87412
;WIDTH:0.383112
G1 X103.676 Y116.421 E1.89679
;WIDTH:0.383724
G1 X103.782 Y117.099 E1.91951
;WIDTH:0.384246
G1 X103.928 Y117.769 E1.94225
;WIDTH:0.38468
G1 X104.115 Y118.429 E1.96503
;WIDTH:0.38492
G1 X104.339 Y119.072 E1.98765
G1 X104.687 Y119.885 E2.01703
;WIDTH:0.3781
G1 X105.041 Y120.572 E2.04218
;WIDTH:0.3758
G1 X105.412 Y121.186 E2.06536
;WIDTH:0.37999
G1 X105.731 Y121.656 E2.08395
G1 X106.262 Y122.34 E2.11229
;WIDTH:0.388252
G1 X107.079 Y123.208 E2.15229
G1 X107.792 Y123.849 E2.18447
;WIDTH:0.376662
G1 X108.362 Y124.284 E2.2077
;WIDTH:0.400472
G1 X109.097 Y124.76 E2.23816
G1 X109.555 Y125.031 E2.25667
;WIDTH:0.378348
G1 X110.221 Y125.362 E2.28089
;WIDTH:0.379004
G1 X110.879 Y125.646 E2.30428
;WIDTH:0.379806
G1 X111.556 Y125.884 E2.32776
;WIDTH:0.380682
G1 X112.244 Y126.079 E2.35122
G1 X112.948 Y126.226 E2.37481
;WIDTH:0.382344
G1 X113.599 Y126.33 E2.39654
;WIDTH:0.38304
G1 X114.282 Y126.393 E2.4192
;WIDTH:0.383654
G1 X114.968 Y126.416 E2.44192
G1 X115.519 Y126.401 E2.46016
G1 E.96016 F1800
G92 E0
G1 X114.294 Y103.944 F9000
G1 E1.5 F1800
;WIDTH:0.399999
G1 F1200
G1 X114.294 Y103.271 E1.52338
G1 X115.21 Y103.248 E1.55521
G1 X115.853 Y103.285 E1.57758
G1 X116.642 Y103.361 E1.60512
G1 X117.342 Y103.481 E1.62979
G1 X118.064 Y103.653 E1.65557
G1 X118.771 Y103.877 E1.68133
G1 X119.477 Y104.134 E1.70743
G1 X120.157 Y104.44 E1.73333
G1 X120.817 Y104.789 E1.75927
G1 X121.446 Y105.183 E1.78505
G1 X122.052 Y105.6 E1.8106
G1 X122.462 Y105.917 E1.8286
G1 X123.139 Y106.523 E1.86016
G1 X123.51 Y106.89 E1.87829
G1 X123.988 Y107.423 E1.90316
G1 X124.432 Y107.983 E1.92799
G1 X124.842 Y108.57 E1.95286
G1 X125.215 Y109.181 E1.97773
G1 X125.55 Y109.813 E2.00258
G1 X125.846 Y110.465 E2.02745
G1 X126.102 Y111.133 E2.0523
G1 X126.317 Y111.816 E2.07717
G1 X126.49 Y112.51 E2.10202
G1 X126.62 Y113.214 E2.12689
G1 X126.707 Y113.924 E2.15174
G1 X126.751 Y114.638 E2.17659
G1 X126.743 Y115.334 E2.20077
G1 X126.706 Y116.085 E2.22689
G1 X126.613 Y116.825 E2.2528
G1 X126.473 Y117.559 E2.27876
G1 X126.286 Y118.282 E2.3047
G1 X126.049 Y118.985 E2.33047
G1 X125.767 Y119.71 E2.35749
G1 X125.553 Y120.18 E2.37543
G1 X125.097 Y121.013 E2.40842
G1 X124.695 Y121.641 E2.43432
