; generated by PrusaSlicer 2.6.1+win64 on 2023-11-18 at 19:15:02 UTC


;
;

;
;
; 

; external perimeters extrusion width = 0.40mm
; perimeters extrusion width = 0.40mm
; infill extrusion width = 0.40mm
; solid infill extrusion width = 0.40mm
; top infill extrusion width = 0.38mm
; support material extrusion width = 0.40mm
; first layer extrusion width = 0.40mm

M73 P0 R63


; Pre-Processed for Cancel-Object support by preprocess_cancellation v0.2.0
; 1 known objects
EXCLUDE_OBJECT_DEFINE NAME=duotone_adapter_v12_stl_id_0_copy_0 CENTER=115.025,115.009 POLYGON=[[98.434,98.389],[98.434,131.58],[131.566,131.58],[131.566,98.389]]
M190 S60 ; set bed temperature and wait for it to be reached
M104 S200 ; set temperature
;TYPE:Custom
START_PRINT EXTRUDER_TEMP=200 BED_TEMP=60
M109 S200 ; set temperature and wait for it to be reached
G21 ; set units to millimeters
G90 ; use absolute coordinates
M82 ; use absolute distances for extrusion
G92 E0
; Filament gcode
; M900 K0.035 ; Linear Advance
M107
;LAYER_CHANGE
;Z:0.25
;HEIGHT:0.25

G1 Z.25 F9000
;AFTER_LAYER_CHANGE
;0.25
G1 E-1.5 F1800
G92 E0
G1 X99.384 Y97.764 F9000
G1 E1.5 F1800
;TYPE:Skirt/Brim
;WIDTH:0.4
G1 F1200
G1 X101.418 Y96.12 E1.59415
G1 X102.77 Y95.215 E1.65272
G1 X107.194 Y92.616 E1.83743
G1 X109.354 Y91.809 E1.92044
G1 X110.645 Y91.696 E1.96709
G1 X115.302 Y91.741 E2.13474
G1 X117.053 Y91.831 E2.19786
G1 X119.57 Y92.191 E2.28939
G1 X121.228 Y92.589 E2.35077
G1 X123.638 Y93.401 E2.44232
G1 X125.196 Y94.093 E2.50369
G1 X127.418 Y95.329 E2.59522
G1 X128.825 Y96.293 E2.65662
G1 X130.785 Y97.912 E2.74814
G1 X131.993 Y99.115 E2.80951
G1 X133.627 Y101.063 E2.90104
G1 X134.596 Y102.466 E2.96242
G1 X135.849 Y104.679 E3.05397
G1 X136.547 Y106.234 E3.11533
G1 X137.377 Y108.637 E3.20685
G1 X137.781 Y110.294 E3.26825
G1 X138.139 Y112.606 E3.35247
G1 X138.257 Y114.51 E3.42114
G1 X138.174 Y117.052 E3.5127
G1 X137.959 Y118.743 E3.57406
G1 X137.467 Y121.03 E3.65827
G1 X136.897 Y122.851 E3.72696
G1 X135.998 Y125.011 E3.81118
G1 X135.21 Y126.523 E3.87256
G1 X134.357 Y127.9 E3.93087
G1 X132.961 Y129.782 E4.01522
G1 X131.89 Y130.998 E4.07355
G1 X130.672 Y132.189 E4.13488
G1 X128.868 Y133.676 E4.21904
G1 X127.511 Y134.612 E4.27838
G1 X123.07 Y137.305 E4.46535
G1 X120.922 Y138.141 E4.54833
G1 X119.588 Y138.272 E4.59658
G1 X114.688 Y138.258 E4.77298
G1 X112.384 Y138.112 E4.85609
G1 X110.521 Y137.824 E4.92395
G1 X108.087 Y137.21 E5.01432
G1 X105.657 Y136.3 E5.10773
G1 X103.964 Y135.473 E5.17556
G1 X101.751 Y134.118 E5.26897
G1 X99.617 Y132.446 E5.36656
G1 X97.771 Y130.623 E5.45996
G1 X96.563 Y129.177 E5.52779
G1 X95.097 Y127.036 E5.6212
G1 X93.832 Y124.638 E5.7188
G1 X92.892 Y122.22 E5.81219
G1 X92.38 Y120.406 E5.88004
G1 X91.917 Y117.853 E5.97344
G1 X91.742 Y115.149 E6.07098
G1 X91.872 Y112.556 E6.16444
G1 X92.146 Y110.692 E6.23226
G1 X92.766 Y108.173 E6.32565
G1 X93.711 Y105.632 E6.42324
G1 X94.889 Y103.319 E6.51668
G1 X95.9 Y101.729 E6.58451
G1 X97.496 Y99.683 E6.67792
G1 X99.342 Y97.807 E6.77267
G1 X99.588 Y98.049 F9000
G1 F1200
G1 X101.626 Y96.397 E6.86711
G1 X102.953 Y95.509 E6.92459
G1 X107.37 Y92.915 E7.10899
G1 X109.476 Y92.139 E7.18979
G1 X110.641 Y92.042 E7.23187
G1 X115.299 Y92.087 E7.39956
G1 X117.016 Y92.175 E7.46145
G1 X119.502 Y92.531 E7.55186
G1 X121.129 Y92.921 E7.61209
G1 X123.509 Y93.722 E7.70249
G1 X125.038 Y94.401 E7.76272
G1 X127.233 Y95.621 E7.85312
G1 X128.613 Y96.567 E7.91335
G1 X130.55 Y98.166 E8.00377
G1 X131.736 Y99.346 E8.064
G1 X133.349 Y101.27 E8.15438
G1 X134.301 Y102.647 E8.21464
G1 X135.539 Y104.832 E8.30505
G1 X136.224 Y106.358 E8.36527
G1 X137.044 Y108.731 E8.45565
G1 X137.441 Y110.357 E8.5159
G1 X137.795 Y112.648 E8.59935
G1 X137.908 Y114.317 E8.65957
G1 X137.898 Y115.906 E8.71677
G1 X137.69 Y118.214 E8.80019
G1 X137.353 Y120.05 E8.86739
G1 X136.728 Y122.282 E8.95083
G1 X136.14 Y123.849 E9.01108
G1 X135.044 Y126.108 E9.10147
G1 X134.073 Y127.702 E9.16866
G1 X132.689 Y129.567 E9.25226
G1 X131.639 Y130.759 E9.30944
G1 X130.444 Y131.929 E9.36964
G1 X128.656 Y133.402 E9.45304
G1 X127.324 Y134.321 E9.5113
G1 X122.891 Y137.008 E9.69791
G1 X120.796 Y137.813 E9.7787
G1 X119.589 Y137.926 E9.82234
G1 X114.7 Y137.911 E9.99834
G1 X112.416 Y137.767 E10.08072
G1 X110.595 Y137.485 E10.14706
G1 X108.191 Y136.879 E10.23631
G1 X105.79 Y135.98 E10.3286
G1 X104.134 Y135.172 E10.39493
G1 X101.948 Y133.833 E10.48721
G1 X99.847 Y132.187 E10.58329
G1 X98.023 Y130.385 E10.67559
G1 X96.842 Y128.971 E10.74191
G1 X95.393 Y126.856 E10.8342
G1 X94.148 Y124.495 E10.93029
G1 X93.219 Y122.106 E11.02256
G1 X92.719 Y120.332 E11.08891
G1 X92.261 Y117.81 E11.18118
G1 X92.088 Y115.148 E11.27721
G1 X92.217 Y112.586 E11.36956
G1 X92.485 Y110.763 E11.43589
G1 X93.097 Y108.274 E11.52816
G1 X94.028 Y105.772 E11.62426
G1 X95.192 Y103.487 E11.71658
G1 X96.181 Y101.933 E11.78289
G1 X97.757 Y99.911 E11.87518
G1 X99.546 Y98.092 E11.96702
; printing object duotone_adapter v12.stl id:0 copy 0
EXCLUDE_OBJECT_START NAME=duotone_adapter_v12_stl_id_0_copy_0
G1 E10.46702 F1800
G92 E0
G1 X111.083 Y98.676 F9000
G1 E1.5 F1800
;TYPE:Support material
G1 F1200
G1 X114.25 Y98.448 E1.6143
G1 X115.238 Y98.433 E1.64987
G1 X116.331 Y98.485 E1.68926
G1 X117.249 Y98.584 E1.7225
G1 X118.244 Y98.751 E1.75882
G1 X119.309 Y99.001 E1.7982
G1 X120.194 Y99.265 E1.83145
G1 X121.142 Y99.611 E1.86778
G1 X122.144 Y100.049 E1.90715
G1 X123.041 Y100.512 E1.94349
G1 X123.836 Y100.982 E1.97674
G1 X124.742 Y101.595 E2.01612
G1 X125.473 Y102.159 E2.04936
G1 X126.235 Y102.82 E2.08567
G1 X126.956 Y103.526 E2.122
G1 X127.632 Y104.275 E2.15832
G1 X128.312 Y105.132 E2.1977
G1 X128.841 Y105.888 E2.23092
G1 X129.37 Y106.748 E2.26727
G1 X129.884 Y107.714 E2.30666
G1 X130.299 Y108.633 E2.34296
G1 X130.63 Y109.495 E2.3762
G1 X130.96 Y110.538 E2.41558
G1 X131.202 Y111.518 E2.45192
G1 X131.37 Y112.426 E2.48516
G1 X131.505 Y113.511 E2.52452
G1 X131.565 Y114.518 E2.56084
G1 X131.566 Y115.442 E2.5941
G1 X131.501 Y116.534 E2.63348
G1 X131.389 Y117.451 E2.66674
G1 X131.21 Y118.444 E2.70306
G1 X130.97 Y119.423 E2.73935
G1 X130.671 Y120.387 E2.77568
G1 X130.282 Y121.409 E2.81505
G1 X129.901 Y122.251 E2.84832
G1 X129.432 Y123.144 E2.88463
G1 X128.863 Y124.078 E2.924
G1 X128.285 Y124.905 E2.96032
G1 X127.71 Y125.632 E2.99369
G1 X126.981 Y126.448 E3.03308
G1 X126.325 Y127.097 E3.0663
G1 X125.568 Y127.763 E3.1026
G1 X124.773 Y128.382 E3.13887
G1 X123.89 Y128.983 E3.17732
G1 X119.604 Y131.58 E3.35772
G1 X119.07 Y131.279 E3.37979
G1 X115.969 Y131.54 E3.49182
G1 X114.994 Y131.569 E3.52693
G1 X113.915 Y131.533 E3.56579
G1 X113.007 Y131.448 E3.59862
G1 X112.022 Y131.298 E3.63449
G1 X110.966 Y131.07 E3.67338
G1 X110.008 Y130.798 E3.70923
G1 X109.068 Y130.469 E3.74508
G1 X108.149 Y130.085 E3.78093
G1 X107.33 Y129.685 E3.81374
G1 X106.389 Y129.154 E3.85264
G1 X105.623 Y128.658 E3.88549
G1 X104.82 Y128.07 E3.92132
G1 X103.99 Y127.379 E3.9602
G1 X103.266 Y126.695 E3.99606
G1 X102.64 Y126.031 E4.02891
G1 X102 Y125.268 E4.06476
G1 X101.713 Y124.884 E4.08202
G1 X101.358 Y124.399 E4.10366
G1 X100.818 Y123.563 E4.13949
G1 X100.369 Y122.769 E4.17233
G1 X99.928 Y121.876 E4.20818
G1 X99.512 Y120.879 E4.24707
G1 X99.187 Y119.938 E4.28291
G1 X98.939 Y119.06 E4.31575
G1 X98.709 Y118.005 E4.35462
G1 X98.558 Y117.02 E4.39049
G1 X98.466 Y116.029 E4.42632
G1 X98.434 Y115.035 E4.46212
G1 X98.457 Y114.121 E4.49503
G1 X98.55 Y113.045 E4.53391
G1 X98.682 Y112.143 E4.56673
G1 X98.884 Y111.167 E4.60261
G1 X99.167 Y110.125 E4.64148
G1 X99.489 Y109.183 E4.67732
G1 X99.867 Y108.261 E4.71319
G1 X100.26 Y107.438 E4.74602
G1 X100.741 Y106.566 E4.78187
G1 X101.274 Y105.724 E4.81774
G1 X101.856 Y104.916 E4.85359
G1 X102.541 Y104.081 E4.89247
G1 X103.163 Y103.41 E4.92541
G1 X103.88 Y102.719 E4.96126
G1 X104.703 Y102.021 E5.00011
G1 X105.501 Y101.426 E5.03594
G1 X106.312 Y100.894 E5.07086
G1 X110.581 Y98.389 E5.24904
G1 X111.038 Y98.65 E5.26799
G1 E3.76799 F1800
G92 E0
G1 X114.898 Y108.739 F9000
G1 E1.5 F1800
G1 F1200
G1 X115.437 Y108.75 E1.51941
G1 X115.834 Y108.791 E1.53378
G1 X116.227 Y108.856 E1.54812
G1 X116.615 Y108.946 E1.56246
G1 X116.997 Y109.061 E1.57682
G1 X117.606 Y109.305 E1.60044
G1 X118.087 Y109.547 E1.61982
G1 X118.428 Y109.754 E1.63418
G1 X118.754 Y109.983 E1.64852
G1 X119.066 Y110.231 E1.66287
G1 X119.361 Y110.499 E1.67722
G1 X119.638 Y110.785 E1.69155
G1 X119.897 Y111.089 E1.70593
G1 X120.135 Y111.408 E1.72026
G1 X120.353 Y111.741 E1.73459
G1 X120.55 Y112.088 E1.74895
G1 X120.724 Y112.447 E1.76331
G1 X120.875 Y112.816 E1.77766
G1 X121.002 Y113.193 E1.79198
G1 X121.104 Y113.578 E1.80632
G1 X121.182 Y113.969 E1.82067
G1 X121.235 Y114.364 E1.83502
G1 X121.263 Y114.762 E1.84938
G1 X121.266 Y115.16 E1.86371
G1 X121.243 Y115.559 E1.8781
G1 X121.195 Y115.954 E1.89242
G1 X121.122 Y116.345 E1.90674
G1 X121.024 Y116.732 E1.92111
G1 X120.901 Y117.111 E1.93545
G1 X120.755 Y117.482 E1.9498
G1 X120.586 Y117.842 E1.96412
G1 X120.394 Y118.192 E1.97849
G1 X120.028 Y118.736 E2.00209
G1 X119.69 Y119.156 E2.0215
G1 X119.417 Y119.446 E2.03584
G1 X119.125 Y119.718 E2.05021
G1 X118.812 Y119.974 E2.06477
G1 X117.327 Y121.052 E2.13083
G1 X115.447 Y121.249 E2.19888
G1 X114.671 Y121.256 E2.22682
G1 X114.279 Y121.223 E2.24098
G1 X113.641 Y121.112 E2.26429
G1 X113.126 Y120.977 E2.28346
G1 X112.519 Y120.748 E2.30681
G1 X112.039 Y120.519 E2.32596
G1 X111.486 Y120.181 E2.34929
G1 X111.057 Y119.866 E2.36845
G1 X110.478 Y119.333 E2.39678
G1 X109.971 Y118.732 E2.42509
G1 X109.746 Y118.408 E2.43929
G1 X109.36 Y117.722 E2.46763
G1 X109.064 Y116.993 E2.49595
G1 X108.861 Y116.233 E2.52427
G1 X108.769 Y115.592 E2.54758
G1 X108.738 Y115.06 E2.56676
G1 X108.78 Y114.274 E2.5951
G1 X108.92 Y113.5 E2.62342
G1 X109.156 Y112.749 E2.65176
G1 X109.485 Y112.034 E2.68009
G1 X109.682 Y111.694 E2.69424
G1 X110.138 Y111.053 E2.72256
G1 X110.671 Y110.474 E2.75089
G1 X110.964 Y110.211 E2.76506
G1 X111.28 Y109.961 E2.77957
G1 X112.78 Y108.914 E2.84542
G1 X114.846 Y108.74 E2.92006
G1 E1.42006 F1800
G92 E0
G1 X131.055 Y117.559 F9000
G1 E1.5 F1800
G1 F1200
G1 X131.163 Y116.729 E1.53013
G1 X131.163 Y113.267 E1.65476
G1 X131.055 Y112.435 E1.68496
G1 E.18496 F1800
G92 E0
G1 X130.67 Y119.338 F9000
G1 E1.5 F1800
G1 F1200
G1 X130.778 Y118.902 E1.51617
G1 X130.778 Y111.098 E1.79711
G1 X130.67 Y110.666 E1.81314
G1 E.31314 F1800
G92 E0
M73 P0 R62
G1 X130.286 Y120.532 F9000
G1 E1.5 F1800
G1 F1200
G1 X130.393 Y120.232 E1.51147
G1 X130.393 Y109.771 E1.88805
G1 X130.286 Y109.466 E1.89969
G1 E.39969 F1800
G92 E0
G1 X129.901 Y121.495 F9000
G1 E1.5 F1800
G1 F1200
G1 X130.008 Y121.255 E1.50946
G1 X130.008 Y108.745 E1.95981
G1 X129.901 Y108.503 E1.96934
G1 E.46934 F1800
G92 E0
G1 X129.498 Y122.352 F9000
G1 E1.5 F1800
G1 F1200
G1 X129.624 Y122.107 E1.50992
G1 X129.624 Y107.895 E2.02154
G1 X129.493 Y107.637 E2.03196
G1 X129.473 Y107.599 F9000
G1 F1200
G1 X129.239 Y107.159 E2.0499
G1 X129.239 Y122.842 E2.61447
G1 X128.854 Y123.499 E2.64188
G1 X128.854 Y106.501 E3.25379
G1 X128.469 Y105.9 E3.27948
G1 X128.469 Y124.099 E3.93462
G1 X128.084 Y124.652 E3.95888
G1 X128.084 Y105.35 E4.65373
G1 X127.699 Y104.857 E4.67625
G1 X127.699 Y125.143 E5.40652
G1 X127.315 Y125.611 E5.42831
G1 X127.315 Y104.388 E6.19231
G1 X126.93 Y103.96 E6.21303
G1 X126.93 Y126.041 E7.00792
G1 X126.545 Y126.441 E7.02791
G1 X126.545 Y103.559 E7.85164
G1 X126.16 Y103.18 E7.87109
G1 X126.16 Y126.821 E8.72214
M73 P1 R62
G1 X125.775 Y127.167 E8.74077
G1 X125.775 Y102.832 E9.6168
G1 X125.39 Y102.497 E9.63517
G1 X125.39 Y127.504 E10.53539
G1 X125.006 Y127.808 E10.55302
G1 X125.006 Y102.192 E11.47517
G1 X124.621 Y101.896 E11.49265
G1 X124.621 Y128.105 E12.43614
G1 X124.236 Y128.373 E12.45303
G1 X124.236 Y101.626 E13.41589
G1 X123.851 Y101.366 E13.43261
G1 X123.851 Y128.635 E14.41426
G1 X123.466 Y128.876 E14.43061
G1 X123.466 Y101.126 E15.42958
G1 X123.081 Y100.898 E15.44569
G1 X123.081 Y129.109 E16.46125
G1 X122.697 Y129.342 E16.47742
G1 X122.697 Y100.683 E17.50911
G1 X122.312 Y100.485 E17.5247
G1 X122.312 Y129.575 E18.57191
G1 X121.927 Y129.809 E18.58813
G1 X121.927 Y100.292 E19.65071
G1 X121.542 Y100.123 E19.66585
G1 X121.542 Y114.307 E20.17646
G1 X121.575 Y114.75 E20.19245
G1 X121.577 Y115.168 E20.2075
G1 X121.542 Y115.679 E20.22594
G1 X121.542 Y130.042 E20.74299
G1 X121.157 Y130.275 E20.75919
G1 X121.157 Y117.312 E21.22584
G1 X121.241 Y117.073 E21.23496
G1 E19.73496 F1800
G92 E0
G1 X109.12 Y112.068 F9000
G1 E1.5 F1800
G1 F1200
G1 X109.228 Y111.856 E1.50857
G1 X109.228 Y99.544 E1.95179
G1 X109.612 Y99.318 E1.96783
G1 X109.612 Y111.235 E2.39683
G1 X109.997 Y110.739 E2.41943
G1 X109.997 Y99.092 E2.83871
G1 X110.382 Y98.867 E2.85476
G1 X110.382 Y110.324 E3.2672
G1 X110.767 Y109.969 E3.28605
G1 X110.767 Y98.854 E3.68618
G1 X111.011 Y98.994 E3.69631
G1 X111.152 Y98.984 E3.7014
G1 X111.152 Y109.67 E4.08608
G1 X111.537 Y109.402 E4.10297
G1 X111.537 Y98.956 E4.47901
G1 X111.921 Y98.928 E4.49287
G1 X111.921 Y109.133 E4.86024
G1 X112.306 Y108.865 E4.87713
G1 X112.306 Y98.9 E5.23586
G1 X112.691 Y98.871 E5.24976
G1 X112.691 Y108.609 E5.60032
G1 X113.076 Y108.575 E5.61423
G1 X113.076 Y98.843 E5.96457
G1 X113.461 Y98.815 E5.97847
G1 X113.461 Y108.541 E6.32859
G1 X113.846 Y108.506 E6.34251
G1 X113.846 Y98.788 E6.69235
G1 X114.23 Y98.762 E6.70621
G1 X114.23 Y108.472 E7.05576
G1 X114.615 Y108.436 E7.06968
G1 X114.615 Y98.753 E7.41826
G1 X115 Y98.748 E7.43212
G1 X115 Y108.425 E7.78048
G1 X115.385 Y108.436 E7.79435
G1 X115.385 Y98.749 E8.14307
G1 X115.77 Y98.767 E8.15694
G1 X115.77 Y108.471 E8.50627
G1 X116.154 Y108.528 E8.52025
G1 X116.154 Y98.786 E8.87095
G1 X116.227 Y98.789 E8.87358
G1 X116.539 Y98.821 E8.88487
G1 X116.539 Y108.609 E9.23723
G1 X116.924 Y108.714 E9.2516
G1 X116.924 Y98.862 E9.60626
G1 X117.309 Y98.908 E9.62022
G1 X117.309 Y108.844 E9.9779
G1 X117.694 Y109.003 E9.99289
G1 X117.694 Y98.974 E10.35392
G1 X118.079 Y99.039 E10.36798
G1 X118.079 Y109.191 E10.73344
G1 X118.463 Y109.411 E10.74937
G1 X118.463 Y99.12 E11.11983
G1 X118.848 Y99.21 E11.13406
G1 X118.848 Y109.668 E11.51054
G1 X119.233 Y109.966 E11.52807
G1 X119.233 Y99.303 E11.91193
G1 X119.618 Y99.418 E11.92639
G1 X119.618 Y110.317 E12.31874
G1 X120.003 Y110.733 E12.33914
G1 X120.003 Y99.534 E12.74229
G1 X120.388 Y99.666 E12.75694
G1 X120.388 Y111.224 E13.17301
G1 X120.772 Y111.849 E13.19942
G1 X120.772 Y99.807 E13.63292
G1 X121.157 Y99.955 E13.64777
G1 X121.157 Y112.684 E14.106
G1 X121.265 Y112.999 E14.11799
G1 E12.61799 F1800
G92 E0
G1 X120.88 Y117.949 F9000
G1 E1.5 F1800
G1 F1200
G1 X120.772 Y118.15 E1.50821
G1 X120.772 Y130.508 E1.95308
G1 X120.388 Y130.741 E1.96925
G1 X120.388 Y118.772 E2.40012
G1 X120.003 Y119.268 E2.42272
G1 X120.003 Y130.974 E2.84412
M73 P2 R62
G1 X119.618 Y131.207 E2.86032
G1 X119.618 Y119.684 E3.27513
G1 X119.233 Y120.032 E3.29381
G1 X119.233 Y131.013 E3.68911
G1 X119.139 Y130.96 E3.69299
G1 X118.848 Y130.985 E3.7035
G1 X118.848 Y120.333 E4.08696
G1 X118.463 Y120.612 E4.10408
G1 X118.463 Y131.018 E4.47868
G1 X118.079 Y131.051 E4.49255
G1 X118.079 Y120.891 E4.8583
G1 X117.694 Y121.171 E4.87544
G1 X117.694 Y131.084 E5.2323
G1 X117.309 Y131.116 E5.24621
G1 X117.309 Y121.367 E5.59716
G1 X116.924 Y121.407 E5.61109
G1 X116.924 Y131.149 E5.96179
G1 X116.539 Y131.182 E5.9757
G1 X116.539 Y121.447 E6.32615
G1 X116.154 Y121.487 E6.34008
G1 X116.154 Y131.213 E6.6902
G1 X115.77 Y131.236 E6.70405
G1 X115.77 Y121.527 E7.05356
G1 X115.385 Y121.563 E7.06748
G1 X115.385 Y131.246 E7.41606
G1 X115 Y131.257 E7.42993
G1 X115 Y121.575 E7.77847
G1 X114.615 Y121.564 E7.79234
G1 X114.615 Y131.247 E8.14092
G1 X114.23 Y131.234 E8.15479
G1 X114.23 Y121.531 E8.50409
G1 X113.846 Y121.474 E8.51807
G1 X113.846 Y131.213 E8.86866
G1 X113.461 Y131.177 E8.88258
G1 X113.461 Y121.392 E9.23483
M73 P2 R61
G1 X113.076 Y121.287 E9.2492
G1 X113.076 Y131.141 E9.60393
G1 X112.691 Y131.086 E9.61793
G1 X112.691 Y121.155 E9.97543
G1 X112.306 Y120.997 E9.99041
G1 X112.306 Y131.027 E10.35148
G1 X111.921 Y130.96 E10.36555
G1 X111.921 Y120.809 E10.73097
G1 X111.537 Y120.589 E10.7469
G1 X111.537 Y130.877 E11.11726
G1 X111.152 Y130.793 E11.13145
G1 X111.152 Y120.33 E11.50811
G1 X110.767 Y120.027 E11.52575
G1 X110.767 Y130.69 E11.90961
