; generated by PrusaSlicer 2.6.1+win64 on 2023-11-17 at 23:49:19 UTC


;
;

;
;
; 

; external perimeters extrusion width = 0.40mm
; perimeters extrusion width = 0.40mm
; infill extrusion width = 0.40mm
; solid infill extrusion width = 0.40mm
; top infill extrusion width = 0.38mm
; support material extrusion width = 0.40mm
; first layer extrusion width = 0.40mm

M73 P0 R1


; Pre-Processed for Cancel-Object support by preprocess_cancellation v0.2.0
; 1 known objects
EXCLUDE_OBJECT_DEFINE NAME=First_Layer_Patch_0_25mm_stl_id_0_copy_0 CENTER=114.885,114.998 POLYGON=[[102.7,102.7],[102.7,127.3],[127.3,127.3],[127.3,102.7]]
M190 S60 ; set bed temperature and wait for it to be reached
M104 S200 ; set temperature
;TYPE:Custom
START_PRINT EXTRUDER_TEMP=200 BED_TEMP=60
M109 S200 ; set temperature and wait for it to be reached
G21 ; set units to millimeters
G90 ; use absolute coordinates
M82 ; use absolute distances for extrusion
G92 E0
; Filament gcode
; M900 K0.035 ; Linear Advance
M107
;LAYER_CHANGE
;Z:0.25
;HEIGHT:0.25

G1 Z.25 F9000
;AFTER_LAYER_CHANGE
;0.25
G1 E-1.5 F1800
G92 E0
G1 X97.348 Y98.228 F9000
M73 P1 R1
G1 E1.5 F1800
;TYPE:Skirt/Brim
;WIDTH:0.4
G1 F1200
G1 X99.103 Y96.733 E1.58299
G1 X101.262 Y95.923 E1.666
G1 X102.5 Y95.807 E1.71076
G1 X127.5 Y95.807 E2.61073
M73 P2 R1
G1 X129.771 Y96.204 E2.69372
G1 X131.772 Y97.348 E2.7767
G1 X133.267 Y99.103 E2.85969
G1 X134.077 Y101.262 E2.9427
M73 P3 R1
G1 X134.193 Y102.5 E2.98746
G1 X134.193 Y127.5 E3.88743
M73 P4 R1
G1 X133.796 Y129.771 E3.97042
G1 X132.652 Y131.772 E4.0534
G1 X130.897 Y133.267 E4.13639
G1 X128.739 Y134.077 E4.21937
G1 X127.5 Y134.193 E4.26417
G1 X102.5 Y134.193 E5.16414
M73 P5 R1
G1 X100.229 Y133.796 E5.24713
M73 P6 R1
G1 X98.228 Y132.652 E5.33011
G1 X96.733 Y130.897 E5.4131
G1 X95.923 Y128.739 E5.49608
G1 X95.807 Y127.5 E5.54088
G1 X95.807 Y102.5 E6.44085
M73 P7 R1
G1 X96.204 Y100.229 E6.52384
G1 X97.318 Y98.28 E6.60465
G1 X97.629 Y98.463 F9000
G1 F1200
G1 X97.691 Y98.358 E6.60904
G1 X99.434 Y96.944 E6.68984
G1 X102.5 Y96.154 E6.80382
M73 P8 R1
G1 X127.5 Y96.154 E7.70379
M73 P9 R1
G1 X129.709 Y96.551 E7.78459
G1 X131.642 Y97.691 E7.86538
G1 X133.056 Y99.434 E7.94618
G1 X133.846 Y102.5 E8.06016
G1 X133.846 Y127.5 E8.96013
M73 P10 R1
G1 X133.45 Y129.709 E9.04092
G1 X132.309 Y131.642 E9.12172
G1 X130.566 Y133.056 E9.20252
M73 P11 R1
G1 X127.5 Y133.846 E9.3165
G1 X102.5 Y133.846 E10.21647
M73 P12 R1
G1 X100.291 Y133.45 E10.29726
G1 X98.358 Y132.309 E10.37806
G1 X96.944 Y130.566 E10.45886
G1 X96.154 Y127.5 E10.57284
G1 X96.154 Y102.5 E11.47281
M73 P13 R1
G1 X96.551 Y100.291 E11.55361
M73 P14 R1
G1 X97.599 Y98.515 E11.62785
; printing object First_Layer_Patch-0.25mm.stl id:0 copy 0
EXCLUDE_OBJECT_START NAME=First_Layer_Patch_0_25mm_stl_id_0_copy_0
G1 E10.12785 F1800
G92 E0
G1 X126.607 Y126.607 F9000
G1 E1.5 F1800
;TYPE:Perimeter
;WIDTH:0.399999
G1 F1200
G1 X103.393 Y126.607 E2.33568
M73 P15 R1
G1 X103.393 Y103.393 E3.17136
M73 P16 R1
G1 X126.607 Y103.393 E4.00704
M73 P17 R1
G1 X126.607 Y126.547 E4.84056
M73 P19 R1
G1 X126.954 Y126.954 F9000
G1 F1200
G1 X103.046 Y126.954 E5.70122
M73 P20 R1
G1 X103.046 Y103.046 E6.56188
M73 P21 R1
G1 X126.954 Y103.046 E7.42254
M73 P22 R1
G1 X126.954 Y126.894 E8.28104
M73 P23 R1
G1 X127.3 Y127.3 F9000
;TYPE:External perimeter
G1 F1200
G1 X102.7 Y127.3 E9.16661
M73 P24 R1
G1 X102.7 Y102.7 E10.05218
M73 P25 R1
G1 X127.3 Y102.7 E10.93775
M73 P26 R1
G1 X127.3 Y127.24 E11.82116
M73 P28 R1
G1 X126.914 Y127.196 F9000
G1 E10.32116 F1800
G92 E0
G1 X125.803 Y103.497 F9000
G1 E1.5 F1800
;TYPE:Solid infill
;WIDTH:0.400304
G1 F1200
G1 X126.348 Y104.042 E1.52777
G1 X126.348 Y104.532 E1.54542
G1 X125.468 Y103.652 E1.59026
G1 X124.978 Y103.652 E1.60791
G1 X126.348 Y105.022 E1.67772
G1 X126.348 Y105.512 E1.69537
G1 X124.488 Y103.652 E1.79015
G1 X123.997 Y103.652 E1.80784
G1 X126.348 Y106.003 E1.92763
M73 P29 R1
G1 X126.348 Y106.493 E1.94528
G1 X123.507 Y103.652 E2.09004
G1 X123.017 Y103.652 E2.10769
G1 X126.348 Y106.983 E2.27742
G1 X126.348 Y107.473 E2.29507
G1 X122.527 Y103.652 E2.48977
G1 X122.037 Y103.652 E2.50742
G1 X126.348 Y107.963 E2.72709
M73 P30 R1
G1 X126.348 Y108.454 E2.74478
G1 X121.546 Y103.652 E2.98947
G1 X121.056 Y103.652 E3.00712
G1 X126.348 Y108.944 E3.27677
G1 X126.348 Y109.434 E3.29442
G1 X120.566 Y103.652 E3.58904
M73 P31 R1
G1 X120.076 Y103.652 E3.60669
G1 X126.348 Y109.924 E3.92628
G1 X126.348 Y110.415 E3.94397
G1 X119.585 Y103.652 E4.28858
M73 P32 R1
G1 X119.095 Y103.652 E4.30623
G1 X126.348 Y110.905 E4.67581
G1 X126.348 Y111.395 E4.69346
G1 X118.605 Y103.652 E5.088
M73 P33 R1
G1 X118.115 Y103.652 E5.10565
G1 X126.348 Y111.885 E5.52516
G1 X126.348 Y112.376 E5.54285
G1 X117.624 Y103.652 E5.98738
M73 P34 R1
G1 X117.134 Y103.652 E6.00503
G1 X126.348 Y112.866 E6.47453
M73 P35 R1
G1 X126.348 Y113.356 E6.49218
G1 X116.644 Y103.652 E6.98665
G1 X116.154 Y103.652 E7.0043
G1 X126.348 Y113.846 E7.52373
M73 P36 R1
G1 X126.348 Y114.337 E7.54142
G1 X115.663 Y103.652 E8.08587
M73 P37 R1
G1 X115.173 Y103.652 E8.10352
G1 X126.348 Y114.827 E8.67294
G1 X126.348 Y115.317 E8.69059
G1 X114.683 Y103.652 E9.28498
M73 P38 R1
G1 X114.193 Y103.652 E9.30263
G1 X126.348 Y115.807 E9.92199
M73 P39 R1
G1 X126.348 Y116.298 E9.93968
G1 X113.702 Y103.652 E10.58405
M73 P40 R1
G1 X113.212 Y103.652 E10.6017
G1 X126.348 Y116.788 E11.27104
M73 P41 R1
G1 X126.348 Y117.278 E11.28869
G1 X112.722 Y103.652 E11.983
M73 P42 R1
G1 X112.232 Y103.652 E12.00065
G1 X126.348 Y117.768 E12.71993
M73 P43 R1
G1 X126.348 Y118.259 E12.73762
G1 X111.741 Y103.652 E13.48192
M73 P44 R1
G1 X111.251 Y103.652 E13.49957
G1 X126.348 Y118.749 E14.26883
M73 P45 R1
G1 X126.348 Y119.239 E14.28648
G1 X110.761 Y103.652 E15.08071
M73 P46 R0
G1 X110.271 Y103.652 E15.09836
G1 X126.348 Y119.729 E15.91756
M73 P47 R0
G1 X126.348 Y120.22 E15.93525
G1 X109.78 Y103.652 E16.77947
M73 P48 R0
G1 X109.29 Y103.652 E16.79712
G1 X126.348 Y120.71 E17.66631
M73 P49 R0
G1 X126.348 Y121.2 E17.68396
G1 X108.8 Y103.652 E18.57812
M73 P50 R0
G1 X108.31 Y103.652 E18.59577
G1 X126.348 Y121.69 E19.51489
M73 P51 R0
G1 X126.348 Y122.181 E19.53258
G1 X107.819 Y103.652 E20.47672
M73 P53 R0
G1 X107.329 Y103.652 E20.49437
G1 X126.348 Y122.671 E21.46348
M73 P54 R0
G1 X126.348 Y123.161 E21.48113
G1 X106.839 Y103.652 E22.47521
M73 P55 R0
G1 X106.349 Y103.652 E22.49286
G1 X126.348 Y123.651 E23.51191
M73 P57 R0
G1 X126.348 Y124.141 E23.52956
G1 X105.859 Y103.652 E24.57357
M73 P58 R0
G1 X105.368 Y103.652 E24.59126
G1 X126.348 Y124.632 E25.66029
M73 P59 R0
G1 X126.348 Y125.122 E25.67794
G1 X104.878 Y103.652 E26.77194
M73 P61 R0
G1 X104.388 Y103.652 E26.78959
G1 X126.348 Y125.612 E27.90856
M73 P62 R0
G1 X126.348 Y126.102 E27.92621
G1 X103.898 Y103.652 E29.07015
M73 P64 R0
G1 X103.652 Y103.652 E29.07901
G1 X103.652 Y103.898 E29.08787
G1 X126.102 Y126.348 E30.23181
M73 P65 R0
G1 X125.612 Y126.348 E30.24946
G1 X103.652 Y104.388 E31.36843
M73 P67 R0
G1 X103.652 Y104.878 E31.38608
G1 X125.122 Y126.348 E32.48008
M73 P68 R0
G1 X124.632 Y126.348 E32.49773
G1 X103.652 Y105.368 E33.56676
M73 P69 R0
G1 X103.652 Y105.859 E33.58445
G1 X124.141 Y126.348 E34.62846
M73 P71 R0
G1 X123.651 Y126.348 E34.64611
G1 X103.652 Y106.349 E35.66516
M73 P72 R0
G1 X103.652 Y106.839 E35.68281
G1 X123.161 Y126.348 E36.67689
M73 P73 R0
G1 X122.671 Y126.348 E36.69454
G1 X103.652 Y107.329 E37.66365
M73 P75 R0
G1 X103.652 Y107.82 E37.68134
G1 X122.18 Y126.348 E38.62543
M73 P76 R0
G1 X121.69 Y126.348 E38.64308
G1 X103.652 Y108.31 E39.5622
M73 P77 R0
G1 X103.652 Y108.8 E39.57985
G1 X121.2 Y126.348 E40.47401
M73 P78 R0
G1 X120.71 Y126.348 E40.49166
G1 X103.652 Y109.29 E41.36085
M73 P79 R0
G1 X103.652 Y109.781 E41.37854
M73 P80 R0
G1 X120.219 Y126.348 E42.22271
M73 P81 R0
G1 X119.729 Y126.348 E42.24036
G1 X103.652 Y110.271 E43.05956
M73 P82 R0
G1 X103.652 Y110.761 E43.07721
G1 X119.239 Y126.348 E43.87144
M73 P83 R0
G1 X118.749 Y126.348 E43.88909
G1 X103.652 Y111.251 E44.65835
M73 P84 R0
G1 X103.652 Y111.742 E44.67604
G1 X118.258 Y126.348 E45.42029
M73 P85 R0
G1 X117.768 Y126.348 E45.43794
G1 X103.652 Y112.232 E46.15722
M73 P86 R0
G1 X103.652 Y112.722 E46.17487
G1 X117.278 Y126.348 E46.86918
M73 P87 R0
G1 X116.788 Y126.348 E46.88683
G1 X103.652 Y113.212 E47.55617
G1 X103.652 Y113.702 E47.57382
M73 P88 R0
G1 X116.298 Y126.348 E48.21819
G1 X115.807 Y126.348 E48.23588
G1 X103.652 Y114.193 E48.85524
M73 P89 R0
G1 X103.652 Y114.683 E48.87289
G1 X115.317 Y126.348 E49.46728
M73 P90 R0
G1 X114.827 Y126.348 E49.48493
G1 X103.652 Y115.173 E50.05435
M73 P91 R0
G1 X103.652 Y115.663 E50.072
G1 X114.337 Y126.348 E50.61645
G1 X113.846 Y126.348 E50.63414
G1 X103.652 Y116.154 E51.15357
M73 P92 R0
G1 X103.652 Y116.644 E51.17122
G1 X113.356 Y126.348 E51.66569
M73 P93 R0
G1 X112.866 Y126.348 E51.68334
G1 X103.652 Y117.134 E52.15284
G1 X103.652 Y117.624 E52.17049
G1 X112.376 Y126.348 E52.61502
M73 P94 R0
G1 X111.885 Y126.348 E52.63271
G1 X103.652 Y118.115 E53.05222
M73 P95 R0
G1 X103.652 Y118.605 E53.06987
G1 X111.395 Y126.348 E53.46441
G1 X110.905 Y126.348 E53.48206
G1 X103.652 Y119.095 E53.85164
M73 P96 R0
G1 X103.652 Y119.585 E53.86929
G1 X110.415 Y126.348 E54.2139
G1 X109.924 Y126.348 E54.23159
G1 X103.652 Y120.076 E54.55118
M73 P97 R0
G1 X103.652 Y120.566 E54.56883
G1 X109.434 Y126.348 E54.86345
G1 X108.944 Y126.348 E54.8811
G1 X103.652 Y121.056 E55.15075
G1 X103.652 Y121.546 E55.1684
G1 X108.454 Y126.348 E55.41309
M73 P98 R0
G1 X107.963 Y126.348 E55.43078
G1 X103.652 Y122.037 E55.65045
G1 X103.652 Y122.527 E55.6681
G1 X107.473 Y126.348 E55.8628
G1 X106.983 Y126.348 E55.88045
G1 X103.652 Y123.017 E56.05018
M73 P99 R0
G1 X103.652 Y123.507 E56.06783
G1 X106.493 Y126.348 E56.21259
G1 X106.002 Y126.348 E56.23028
G1 X103.652 Y123.998 E56.35002
G1 X103.652 Y124.488 E56.36767
G1 X105.512 Y126.348 E56.46245
G1 X105.022 Y126.348 E56.4801
G1 X103.652 Y124.978 E56.54991
G1 X103.652 Y125.468 E56.56756
G1 X104.532 Y126.348 E56.6124
G1 X104.041 Y126.348 E56.63009
G1 X103.497 Y125.803 E56.65783
; stop printing object First_Layer_Patch-0.25mm.stl id:0 copy 0
EXCLUDE_OBJECT_END NAME=First_Layer_Patch_0_25mm_stl_id_0_copy_0
G1 E55.15783 F1800
G92 E0
M107
;TYPE:Custom
; Filament-specific end gcode 
;END gcode for filament
END_PRINT
M73 P100 R0
; filament used [mm] = 75.61
; filament used [cm3] = 0.18
; filament used [g] = 0.23
; filament cost = 0.83
; total filament used [g] = 0.23
; total filament cost = 0.83
; estimated printing time (normal mode) = 1m 48s
; estimated first layer printing time (normal mode) = 1m 48s

; prusaslicer_config = begin
; autoemit_temperature_commands = 1
; avoid_crossing_curled_overhangs = 1
; avoid_crossing_perimeters = 0
; avoid_crossing_perimeters_max_detour = 0
; bed_custom_model = 
; bed_custom_texture = C:\\Program Files\\Ultimaker Cura 5.0.0\\share\\cura\\resources\\images\\hellbot_magna_SE.png
; bed_shape = 0x0,230x0,230x230,0x230
; bed_temperature = 60
; before_layer_gcode = \n
; between_objects_gcode = 
; bottom_fill_pattern = monotonic
; bottom_solid_layers = 3
; bottom_solid_min_thickness = 0
; bridge_acceleration = 0
; bridge_angle = 0
; bridge_fan_speed = 100
; bridge_flow_ratio = 1
; bridge_speed = 60
; brim_separation = 0
; brim_type = outer_only
; brim_width = 0
; color_change_gcode = ; FILAMENT CHANGE\nG1 X1 Y1 F6000 ; se va a un costado\nG91\nG1 Z20 F680;  sube el cabezal\nM25; pausa, ahora hay que poner el filamento, purgar manual y luego poner continuar\nM400;\nG1 Z-20 F480; devuelve el cabezal abajo\nG90
; complete_objects = 0
; cooling = 1
; cooling_tube_length = 5
; cooling_tube_retraction = 91.5
; default_acceleration = 0
; default_filament_profile = "Generic PLA @CREALITY"
; default_print_profile = 0.16mm OPTIMAL @CREALITY
; deretract_speed = 0
; disable_fan_first_layers = 1
; dont_support_bridges = 1
; draft_shield = disabled
; duplicate_distance = 6
; elefant_foot_compensation = 0
; enable_dynamic_fan_speeds = 0
; enable_dynamic_overhang_speeds = 1
; end_filament_gcode = "; Filament-specific end gcode \n;END gcode for filament\n"
; end_gcode = END_PRINT
; external_perimeter_acceleration = 0
; external_perimeter_extrusion_width = 0
; external_perimeter_speed = 50%
; external_perimeters_first = 0
; extra_loading_move = -2
; extra_perimeters = 1
; extra_perimeters_on_overhangs = 1
; extruder_clearance_height = 34
; extruder_clearance_radius = 47
; extruder_colour = #FFFFFF
; extruder_offset = 0x0
; extrusion_axis = E
; extrusion_multiplier = 1
; extrusion_width = 0.4
; fan_always_on = 1
; fan_below_layer_time = 60
; filament_colour = #29B2B2
; filament_cooling_final_speed = 3.4
; filament_cooling_initial_speed = 2.2
; filament_cooling_moves = 4
; filament_cost = 3700
; filament_density = 1.24
; filament_diameter = 1.75
; filament_load_time = 0
; filament_loading_speed = 28
; filament_loading_speed_start = 3
; filament_max_volumetric_speed = 15
; filament_minimal_purge_on_wipe_tower = 15
; filament_multitool_ramming = 0
; filament_multitool_ramming_flow = 10
; filament_multitool_ramming_volume = 10
; filament_notes = ""
; filament_ramming_parameters = "120 100 6.6 6.8 7.2 7.6 7.9 8.2 8.7 9.4 9.9 10.0| 0.05 6.6 0.45 6.8 0.95 7.8 1.45 8.3 1.95 9.7 2.45 10 2.95 7.6 3.45 7.6 3.95 7.6 4.45 7.6 4.95 7.6"
; filament_settings_id = "4020 PLA"
; filament_soluble = 0
; filament_spool_weight = 1000
; filament_toolchange_delay = 0
; filament_type = PLA
; filament_unload_time = 0
; filament_unloading_speed = 90
; filament_unloading_speed_start = 100
; filament_vendor = (Unknown)
; fill_angle = 45
; fill_density = 15%
; fill_pattern = grid
; first_layer_acceleration = 0
; first_layer_acceleration_over_raft = 0
; first_layer_bed_temperature = 60
; first_layer_extrusion_width = 0.4
; first_layer_height = 0.25
; first_layer_speed = 20
; first_layer_speed_over_raft = 30
; first_layer_temperature = 200
; full_fan_speed_layer = 0
; fuzzy_skin = none
; fuzzy_skin_point_dist = 0.8
; fuzzy_skin_thickness = 0.3
; gap_fill_enabled = 1
; gap_fill_speed = 20
; gcode_comments = 0
; gcode_flavor = klipper
; gcode_label_objects = 1
; gcode_resolution = 0.0125
; gcode_substitutions = 
; high_current_on_filament_swap = 0
; host_type = octoprint
; infill_acceleration = 0
; infill_anchor = 600%
; infill_anchor_max = 50
; infill_every_layers = 2
; infill_extruder = 1
; infill_extrusion_width = 0
; infill_first = 0
; infill_overlap = 25%
; infill_speed = 60
; interface_shells = 0
; ironing = 0
; ironing_flowrate = 15%
; ironing_spacing = 0.1
; ironing_speed = 15
; ironing_type = top
; layer_gcode = ;AFTER_LAYER_CHANGE\n;{layer_z}
; layer_height = 0.2
; machine_limits_usage = time_estimate_only
; machine_max_acceleration_e = 1000
; machine_max_acceleration_extruding = 500
; machine_max_acceleration_retracting = 500
; machine_max_acceleration_travel = 1500,1250
; machine_max_acceleration_x = 1000
; machine_max_acceleration_y = 1000
; machine_max_acceleration_z = 50
; machine_max_feedrate_e = 120
; machine_max_feedrate_x = 200
; machine_max_feedrate_y = 200
; machine_max_feedrate_z = 12
; machine_max_jerk_e = 2.5
; machine_max_jerk_x = 10
; machine_max_jerk_y = 10
; machine_max_jerk_z = 0.2
; machine_min_extruding_rate = 0
; machine_min_travel_rate = 0
; max_fan_speed = 90
; max_layer_height = 0.3
; max_print_height = 250
; max_print_speed = 80
; max_volumetric_extrusion_rate_slope_negative = 0
; max_volumetric_extrusion_rate_slope_positive = 0
; max_volumetric_speed = 6.72
; min_bead_width = 85%
; min_fan_speed = 65
; min_feature_size = 25%
; min_layer_height = 0.08
; min_print_speed = 10
; min_skirt_length = 10
; mmu_segmented_region_interlocking_depth = 0
; mmu_segmented_region_max_width = 0
; notes = 
; nozzle_diameter = 0.4
; only_retract_when_crossing_perimeters = 1
; ooze_prevention = 0
; output_filename_format = [input_filename_base].gcode
; overhang_fan_speed_0 = 0
; overhang_fan_speed_1 = 0
; overhang_fan_speed_2 = 0
; overhang_fan_speed_3 = 0
; overhang_speed_0 = 60
; overhang_speed_1 = 10
; overhang_speed_2 = 15
; overhang_speed_3 = 20
; overhangs = 1
; parking_pos_retraction = 92
; pause_print_gcode = 
; perimeter_acceleration = 0
