; generated by PrusaSlicer 2.6.1+win64 on 2023-11-17 at 23:18:42 UTC


;
;

;
;
; 

; external perimeters extrusion width = 0.40mm
; perimeters extrusion width = 0.40mm
; infill extrusion width = 0.40mm
; solid infill extrusion width = 0.40mm
; top infill extrusion width = 0.38mm
; support material extrusion width = 0.40mm
; first layer extrusion width = 0.40mm

M73 P0 R55


; Pre-Processed for Cancel-Object support by preprocess_cancellation v0.2.0
; 1 known objects
EXCLUDE_OBJECT_DEFINE NAME=duotone_adapter_v11_stl_id_0_copy_0 CENTER=115.047,115.015 POLYGON=[[98.434,98.389],[98.434,131.58],[131.566,131.58],[131.566,98.389]]
M190 S80 ; set bed temperature and wait for it to be reached
M104 S240 ; set temperature
;TYPE:Custom
START_PRINT EXTRUDER_TEMP=240 BED_TEMP=80
M109 S240 ; set temperature and wait for it to be reached
G21 ; set units to millimeters
G90 ; use absolute coordinates
M82 ; use absolute distances for extrusion
G92 E0
; Filament gcode
M107
;LAYER_CHANGE
;Z:0.25
;HEIGHT:0.25

G1 Z.25 F9000
;AFTER_LAYER_CHANGE
;0.25
G1 E-1.2 F1800
G92 E0
G1 X99.386 Y97.762 F9000
G1 E1.2 F1800
;TYPE:Skirt/Brim
;WIDTH:0.4
G1 F1200
G1 X101.418 Y96.12 E1.29405
G1 X102.77 Y95.215 E1.35262
G1 X107.194 Y92.616 E1.53733
G1 X109.354 Y91.809 E1.62034
G1 X110.645 Y91.696 E1.66699
G1 X115.302 Y91.741 E1.83464
G1 X117.053 Y91.831 E1.89776
G1 X119.57 Y92.191 E1.98929
G1 X121.228 Y92.589 E2.05067
G1 X123.638 Y93.401 E2.14222
G1 X125.196 Y94.093 E2.20359
G1 X127.418 Y95.329 E2.29512
G1 X128.825 Y96.293 E2.35652
G1 X130.785 Y97.911 E2.44801
G1 X131.993 Y99.115 E2.50941
G1 X133.627 Y101.063 E2.60094
G1 X134.596 Y102.466 E2.66232
G1 X135.849 Y104.678 E2.75384
G1 X136.547 Y106.234 E2.81523
G1 X137.377 Y108.637 E2.90675
G1 X137.781 Y110.294 E2.96815
G1 X138.139 Y112.605 E3.05234
G1 X138.254 Y114.306 E3.11371
G1 X138.244 Y115.927 E3.17207
G1 X138.033 Y118.256 E3.25625
G1 X137.689 Y120.133 E3.32495
G1 X137.059 Y122.386 E3.40917
G1 X136.46 Y123.982 E3.47054
G1 X135.35 Y126.27 E3.56209
G1 X134.357 Y127.9 E3.6308
G1 X132.961 Y129.782 E3.71515
G1 X131.89 Y130.998 E3.77348
G1 X130.672 Y132.189 E3.83481
G1 X128.868 Y133.675 E3.91895
G1 X127.511 Y134.612 E3.97831
G1 X123.07 Y137.305 E4.16528
G1 X120.922 Y138.141 E4.24826
G1 X119.588 Y138.272 E4.29651
G1 X114.688 Y138.258 E4.47291
G1 X112.384 Y138.112 E4.55602
G1 X110.521 Y137.824 E4.62388
G1 X108.087 Y137.209 E4.71425
G1 X105.657 Y136.3 E4.80765
G1 X103.964 Y135.473 E4.87548
G1 X101.752 Y134.118 E4.96886
G1 X99.617 Y132.446 E5.06648
G1 X97.771 Y130.623 E5.15988
G1 X96.563 Y129.177 E5.22771
G1 X95.097 Y127.036 E5.32112
G1 X93.832 Y124.638 E5.41872
G1 X92.892 Y122.22 E5.51211
G1 X92.38 Y120.406 E5.57996
G1 X91.917 Y117.853 E5.67336
G1 X91.742 Y115.149 E5.7709
G1 X91.872 Y112.556 E5.86436
G1 X92.146 Y110.692 E5.93218
G1 X92.766 Y108.172 E6.0256
G1 X93.712 Y105.631 E6.12321
G1 X94.889 Y103.319 E6.2166
G1 X95.9 Y101.729 E6.28443
G1 X97.496 Y99.683 E6.37784
G1 X99.343 Y97.805 E6.47266
G1 X99.59 Y98.048 F9000
G1 F1200
G1 X101.626 Y96.397 E6.56702
G1 X102.953 Y95.509 E6.6245
G1 X107.37 Y92.915 E6.8089
G1 X109.476 Y92.139 E6.8897
G1 X110.641 Y92.042 E6.93178
G1 X115.299 Y92.087 E7.09947
G1 X117.016 Y92.175 E7.16136
G1 X119.502 Y92.531 E7.25177
G1 X121.129 Y92.921 E7.312
G1 X123.509 Y93.722 E7.4024
G1 X125.038 Y94.401 E7.46263
G1 X127.233 Y95.621 E7.55303
G1 X128.613 Y96.567 E7.61326
G1 X130.549 Y98.165 E7.70363
G1 X131.736 Y99.346 E7.76391
G1 X133.349 Y101.27 E7.85429
G1 X134.301 Y102.647 E7.91455
G1 X135.538 Y104.831 E8.00491
G1 X136.224 Y106.358 E8.06517
G1 X137.044 Y108.731 E8.15555
G1 X137.441 Y110.357 E8.2158
G1 X137.795 Y112.648 E8.29925
G1 X137.908 Y114.317 E8.35947
G1 X137.898 Y115.906 E8.41667
G1 X137.69 Y118.214 E8.50009
G1 X137.353 Y120.05 E8.56729
G1 X136.728 Y122.282 E8.65073
G1 X136.14 Y123.849 E8.71098
G1 X135.044 Y126.108 E8.80137
G1 X134.073 Y127.702 E8.86856
G1 X132.689 Y129.567 E8.95216
G1 X131.639 Y130.759 E9.00934
G1 X130.444 Y131.929 E9.06954
G1 X128.656 Y133.402 E9.15294
G1 X127.324 Y134.321 E9.2112
G1 X122.891 Y137.008 E9.39781
G1 X120.796 Y137.813 E9.4786
G1 X119.589 Y137.926 E9.52224
G1 X114.7 Y137.911 E9.69824
G1 X112.416 Y137.767 E9.78062
G1 X110.595 Y137.485 E9.84696
G1 X108.19 Y136.879 E9.93624
G1 X105.79 Y135.98 E10.0285
G1 X104.134 Y135.172 E10.09483
G1 X101.949 Y133.833 E10.18708
G1 X99.847 Y132.187 E10.28319
G1 X98.023 Y130.385 E10.37549
G1 X96.842 Y128.971 E10.44181
G1 X95.393 Y126.856 E10.5341
G1 X94.148 Y124.495 E10.63019
G1 X93.219 Y122.106 E10.72246
G1 X92.719 Y120.332 E10.78881
G1 X92.261 Y117.81 E10.88108
G1 X92.088 Y115.148 E10.97711
G1 X92.217 Y112.586 E11.06946
G1 X92.485 Y110.763 E11.13579
G1 X93.097 Y108.273 E11.22809
G1 X94.028 Y105.771 E11.32419
G1 X95.192 Y103.487 E11.41647
G1 X96.181 Y101.933 E11.48278
G1 X97.757 Y99.911 E11.57507
G1 X99.548 Y98.09 E11.66702
; printing object duotone_adapter v11.stl id:0 copy 0
EXCLUDE_OBJECT_START NAME=duotone_adapter_v11_stl_id_0_copy_0
G1 E10.46702 F1800
G92 E0
G1 X111.083 Y98.676 F9000
G1 E1.2 F1800
;TYPE:Support material
G1 F1200
G1 X114.25 Y98.448 E1.3143
G1 X115.238 Y98.433 E1.34987
G1 X116.331 Y98.485 E1.38926
G1 X117.249 Y98.584 E1.4225
G1 X118.244 Y98.751 E1.45882
G1 X119.309 Y99.001 E1.4982
G1 X120.194 Y99.265 E1.53145
G1 X121.142 Y99.611 E1.56778
G1 X122.144 Y100.049 E1.60715
G1 X123.041 Y100.512 E1.64349
G1 X123.836 Y100.982 E1.67674
G1 X124.742 Y101.595 E1.71612
G1 X125.539 Y102.213 E1.75243
G1 X126.298 Y102.878 E1.78876
G1 X126.956 Y103.526 E1.82201
G1 X127.632 Y104.275 E1.85833
G1 X128.312 Y105.132 E1.89771
G1 X128.841 Y105.888 E1.93093
G1 X129.37 Y106.748 E1.96728
G1 X129.884 Y107.714 E2.00667
G1 X130.266 Y108.554 E2.03989
G1 X130.63 Y109.495 E2.07621
G1 X130.96 Y110.538 E2.11559
G1 X131.183 Y111.434 E2.14883
G1 X131.37 Y112.426 E2.18517
G1 X131.505 Y113.511 E2.22453
G1 X131.565 Y114.518 E2.26085
G1 X131.566 Y115.442 E2.29411
G1 X131.501 Y116.534 E2.33349
G1 X131.389 Y117.451 E2.36675
G1 X131.21 Y118.444 E2.40307
G1 X130.97 Y119.423 E2.43936
G1 X130.828 Y119.888 E2.45686
G1 X130.644 Y120.468 E2.47876
G1 X130.282 Y121.409 E2.51506
G1 X129.901 Y122.251 E2.54833
G1 X129.432 Y123.144 E2.58464
G1 X128.863 Y124.078 E2.62401
G1 X128.285 Y124.905 E2.66033
G1 X127.71 Y125.632 E2.6937
G1 X126.981 Y126.448 E2.73309
G1 X126.325 Y127.097 E2.76631
G1 X125.568 Y127.763 E2.80261
G1 X124.773 Y128.382 E2.83888
G1 X123.89 Y128.983 E2.87733
G1 X119.604 Y131.58 E3.05773
G1 X119.07 Y131.279 E3.0798
G1 X115.969 Y131.54 E3.19183
G1 X114.994 Y131.569 E3.22694
G1 X113.915 Y131.533 E3.2658
G1 X113.007 Y131.448 E3.29863
G1 X112.022 Y131.298 E3.3345
G1 X110.966 Y131.07 E3.37339
G1 X110.088 Y130.823 E3.40622
G1 X109.147 Y130.499 E3.44205
G1 X108.149 Y130.085 E3.48095
G1 X107.255 Y129.646 E3.5168
G1 X106.389 Y129.154 E3.55265
G1 X105.554 Y128.611 E3.58851
G1 X104.82 Y128.07 E3.62133
G1 X103.99 Y127.379 E3.66021
G1 X103.266 Y126.695 E3.69607
G1 X102.64 Y126.031 E3.72892
G1 X101.948 Y125.202 E3.76779
G1 X101.406 Y124.469 E3.80061
G1 X100.862 Y123.635 E3.83646
G1 X100.329 Y122.695 E3.87536
G1 X99.893 Y121.799 E3.91123
G1 X99.542 Y120.958 E3.94404
G1 X99.212 Y120.018 E3.9799
G1 X98.939 Y119.06 E4.01576
G1 X98.709 Y118.005 E4.05463
G1 X98.558 Y117.02 E4.0905
G1 X98.466 Y116.029 E4.12633
G1 X98.434 Y115.035 E4.16213
G1 X98.457 Y114.121 E4.19504
G1 X98.55 Y113.045 E4.23392
G1 X98.697 Y112.06 E4.26977
G1 X98.883 Y111.167 E4.30261
G1 X99.167 Y110.125 E4.34149
G1 X99.46 Y109.261 E4.37433
G1 X99.833 Y108.338 E4.41017
G1 X100.26 Y107.438 E4.44603
G1 X100.741 Y106.566 E4.48188
G1 X101.274 Y105.725 E4.51772
G1 X101.856 Y104.916 E4.5536
G1 X102.541 Y104.081 E4.59248
G1 X103.163 Y103.41 E4.62542
G1 X103.88 Y102.719 E4.66127
G1 X104.703 Y102.021 E4.70012
G1 X105.501 Y101.426 E4.73595
G1 X106.312 Y100.894 E4.77087
G1 X110.581 Y98.389 E4.94905
G1 X111.038 Y98.65 E4.968
G1 E3.768 F1800
G92 E0
G1 X114.898 Y108.739 F9000
G1 E1.2 F1800
G1 F1200
G1 X115.437 Y108.75 E1.21941
G1 X115.834 Y108.791 E1.23378
G1 X116.227 Y108.856 E1.24812
G1 X116.615 Y108.946 E1.26246
G1 X116.997 Y109.061 E1.27682
G1 X117.37 Y109.2 E1.29115
G1 X117.734 Y109.362 E1.30549
G1 X118.087 Y109.547 E1.31984
G1 X118.428 Y109.754 E1.3342
G1 X118.754 Y109.983 E1.34854
G1 X119.066 Y110.231 E1.36289
G1 X119.361 Y110.499 E1.37724
G1 X119.638 Y110.785 E1.39157
G1 X119.897 Y111.089 E1.40595
G1 X120.135 Y111.408 E1.42028
G1 X120.48 Y111.966 E1.4439
G1 X120.724 Y112.447 E1.46332
G1 X120.875 Y112.816 E1.47767
G1 X121.068 Y113.442 E1.50125
G1 X121.182 Y113.969 E1.52066
G1 X121.235 Y114.364 E1.53501
G1 X121.263 Y114.762 E1.54937
G1 X121.266 Y115.16 E1.5637
G1 X121.243 Y115.559 E1.57809
G1 X121.195 Y115.954 E1.59241
G1 X121.122 Y116.345 E1.60673
G1 X121.024 Y116.732 E1.6211
G1 X120.901 Y117.111 E1.63544
G1 X120.755 Y117.482 E1.64979
G1 X120.586 Y117.842 E1.66411
G1 X120.394 Y118.192 E1.67848
G1 X120.028 Y118.736 E1.70208
G1 X119.69 Y119.156 E1.72149
G1 X119.417 Y119.446 E1.73583
G1 X119.125 Y119.718 E1.7502
G1 X118.812 Y119.974 E1.76476
G1 X117.327 Y121.052 E1.83082
G1 X115.447 Y121.249 E1.89887
G1 X114.671 Y121.256 E1.92681
G1 X114.279 Y121.223 E1.94097
G1 X113.89 Y121.165 E1.95513
G1 X113.126 Y120.977 E1.98345
G1 X112.754 Y120.847 E1.99764
G1 X112.039 Y120.519 E2.02596
G1 X111.486 Y120.181 E2.04929
G1 X111.057 Y119.866 E2.06845
G1 X110.478 Y119.333 E2.09678
G1 X109.971 Y118.732 E2.12509
G1 X109.746 Y118.408 E2.13929
G1 X109.36 Y117.722 E2.16763
G1 X109.064 Y116.993 E2.19595
G1 X108.861 Y116.233 E2.22427
G1 X108.795 Y115.845 E2.23844
G1 X108.738 Y115.06 E2.26677
G1 X108.78 Y114.274 E2.29511
G1 X108.92 Y113.5 E2.32343
G1 X109.156 Y112.749 E2.35177
G1 X109.485 Y112.034 E2.3801
G1 X109.9 Y111.366 E2.40841
G1 X110.138 Y111.053 E2.42257
G1 X110.396 Y110.755 E2.43676
G1 X110.964 Y110.211 E2.46507
G1 X111.28 Y109.961 E2.47958
G1 X112.78 Y108.914 E2.54543
G1 X114.846 Y108.74 E2.62007
G1 E1.42007 F1800
G92 E0
G1 X131.055 Y117.559 F9000
G1 E1.2 F1800
G1 F1200
G1 X131.163 Y116.729 E1.23013
G1 X131.163 Y113.267 E1.35476
G1 X131.055 Y112.435 E1.38496
G1 E.18496 F1800
G92 E0
G1 X130.67 Y119.338 F9000
G1 E1.2 F1800
G1 F1200
G1 X130.778 Y118.902 E1.21617
G1 X130.778 Y111.098 E1.49711
G1 X130.67 Y110.666 E1.51314
G1 E.31314 F1800
G92 E0
G1 X130.286 Y120.532 F9000
G1 E1.2 F1800
G1 F1200
G1 X130.393 Y120.232 E1.21147
G1 X130.393 Y109.771 E1.58805
G1 X130.286 Y109.466 E1.59969
G1 E.39969 F1800
G92 E0
G1 X129.901 Y121.495 F9000
G1 E1.2 F1800
G1 F1200
G1 X130.008 Y121.255 E1.20946
G1 X130.008 Y108.745 E1.65981
G1 X129.901 Y108.503 E1.66934
G1 E.46934 F1800
G92 E0
G1 X129.498 Y122.352 F9000
G1 E1.2 F1800
G1 F1200
G1 X129.624 Y122.107 E1.20992
G1 X129.624 Y107.895 E1.72154
G1 X129.493 Y107.637 E1.73196
G1 X129.473 Y107.599 F9000
G1 F1200
G1 X129.239 Y107.159 E1.7499
G1 X129.239 Y122.842 E2.31447
G1 X128.854 Y123.499 E2.34188
G1 X128.854 Y106.501 E2.95379
G1 X128.469 Y105.9 E2.97948
G1 X128.469 Y124.099 E3.63462
M73 P0 R54
G1 X128.084 Y124.652 E3.65888
G1 X128.084 Y105.35 E4.35373
G1 X127.699 Y104.857 E4.37625
G1 X127.699 Y125.143 E5.10652
G1 X127.315 Y125.611 E5.12831
M73 P1 R54
G1 X127.315 Y104.388 E5.89231
G1 X126.93 Y103.96 E5.91303
G1 X126.93 Y126.041 E6.70792
G1 X126.545 Y126.441 E6.72791
G1 X126.545 Y103.559 E7.55164
G1 X126.16 Y103.18 E7.57109
G1 X126.16 Y126.821 E8.42214
G1 X125.775 Y127.167 E8.44077
G1 X125.775 Y102.832 E9.3168
G1 X125.39 Y102.497 E9.33517
G1 X125.39 Y127.504 E10.23539
G1 X125.006 Y127.808 E10.25302
G1 X125.006 Y102.192 E11.17517
G1 X124.621 Y101.896 E11.19265
G1 X124.621 Y128.105 E12.13614
G1 X124.236 Y128.373 E12.15303
G1 X124.236 Y101.626 E13.11589
G1 X123.851 Y101.366 E13.13261
G1 X123.851 Y128.635 E14.11426
G1 X123.466 Y128.876 E14.13061
G1 X123.466 Y101.126 E15.12958
G1 X123.081 Y100.898 E15.14569
G1 X123.081 Y129.109 E16.16125
G1 X122.697 Y129.342 E16.17742
G1 X122.697 Y100.683 E17.20911
G1 X122.312 Y100.485 E17.2247
G1 X122.312 Y129.575 E18.27191
G1 X121.927 Y129.808 E18.28811
G1 X121.927 Y100.292 E19.35065
G1 X121.542 Y100.123 E19.36579
G1 X121.542 Y114.307 E19.8764
G1 X121.575 Y114.75 E19.89239
G1 X121.577 Y115.168 E19.90744
G1 X121.542 Y115.679 E19.92588
G1 X121.542 Y130.042 E20.44293
G1 X121.157 Y130.275 E20.45913
G1 X121.157 Y117.312 E20.92578
G1 X121.241 Y117.073 E20.9349
G1 E19.7349 F1800
G92 E0
G1 X109.12 Y112.068 F9000
G1 E1.2 F1800
G1 F1200
G1 X109.228 Y111.856 E1.20857
G1 X109.228 Y99.544 E1.65179
G1 X109.612 Y99.318 E1.66783
G1 X109.612 Y111.235 E2.09683
G1 X109.997 Y110.739 E2.11943
G1 X109.997 Y99.092 E2.53871
G1 X110.382 Y98.867 E2.55476
G1 X110.382 Y110.324 E2.9672
G1 X110.767 Y109.969 E2.98605
G1 X110.767 Y98.854 E3.38618
G1 X111.011 Y98.994 E3.39631
G1 X111.152 Y98.984 E3.4014
G1 X111.152 Y109.67 E3.78608
G1 X111.537 Y109.402 E3.80297
G1 X111.537 Y98.956 E4.17901
G1 X111.921 Y98.928 E4.19287
G1 X111.921 Y109.133 E4.56024
G1 X112.306 Y108.865 E4.57713
G1 X112.306 Y98.9 E4.93586
G1 X112.691 Y98.871 E4.94976
G1 X112.691 Y108.609 E5.30032
G1 X113.076 Y108.575 E5.31423
G1 X113.076 Y98.843 E5.66457
G1 X113.461 Y98.815 E5.67847
G1 X113.461 Y108.541 E6.02859
G1 X113.846 Y108.506 E6.04251
G1 X113.846 Y98.788 E6.39235
G1 X114.23 Y98.762 E6.40621
G1 X114.23 Y108.472 E6.75576
G1 X114.615 Y108.436 E6.76968
G1 X114.615 Y98.753 E7.11826
G1 X115 Y98.748 E7.13212
G1 X115 Y108.425 E7.48048
G1 X115.385 Y108.436 E7.49435
G1 X115.385 Y98.749 E7.84307
G1 X115.77 Y98.767 E7.85694
G1 X115.77 Y108.471 E8.20627
G1 X116.154 Y108.528 E8.22025
G1 X116.154 Y98.786 E8.57095
G1 X116.227 Y98.789 E8.57358
G1 X116.539 Y98.821 E8.58487
G1 X116.539 Y108.609 E8.93723
M73 P2 R54
G1 X116.924 Y108.714 E8.9516
G1 X116.924 Y98.862 E9.30626
G1 X117.309 Y98.908 E9.32022
G1 X117.309 Y108.844 E9.6779
G1 X117.694 Y109.003 E9.69289
G1 X117.694 Y98.974 E10.05392
G1 X118.079 Y99.039 E10.06798
G1 X118.079 Y109.191 E10.43344
G1 X118.463 Y109.411 E10.44937
G1 X118.463 Y99.12 E10.81983
G1 X118.848 Y99.21 E10.83406
G1 X118.848 Y109.668 E11.21054
G1 X119.233 Y109.966 E11.22807
G1 X119.233 Y99.303 E11.61193
G1 X119.618 Y99.418 E11.62639
G1 X119.618 Y110.317 E12.01874
G1 X120.003 Y110.733 E12.03914
G1 X120.003 Y99.534 E12.44229
G1 X120.388 Y99.666 E12.45694
G1 X120.388 Y111.224 E12.87301
G1 X120.772 Y111.849 E12.89942
G1 X120.772 Y99.807 E13.33292
G1 X121.157 Y99.955 E13.34777
G1 X121.157 Y112.684 E13.806
G1 X121.265 Y112.999 E13.81799
G1 E12.61799 F1800
G92 E0
G1 X120.88 Y117.949 F9000
G1 E1.2 F1800
G1 F1200
G1 X120.772 Y118.15 E1.20821
G1 X120.772 Y130.508 E1.65308
G1 X120.388 Y130.741 E1.66925
G1 X120.388 Y118.772 E2.10012
G1 X120.003 Y119.268 E2.12272
G1 X120.003 Y130.974 E2.54412
G1 X119.618 Y131.207 E2.56032
G1 X119.618 Y119.684 E2.97513
G1 X119.233 Y120.032 E2.99381
G1 X119.233 Y131.013 E3.38911
G1 X119.139 Y130.96 E3.39299
G1 X118.848 Y130.985 E3.4035
G1 X118.848 Y120.333 E3.78696
G1 X118.463 Y120.612 E3.80408
G1 X118.463 Y131.018 E4.17868
G1 X118.079 Y131.051 E4.19255
G1 X118.079 Y120.891 E4.5583
G1 X117.694 Y121.171 E4.57544
G1 X117.694 Y131.084 E4.9323
G1 X117.309 Y131.116 E4.94621
G1 X117.309 Y121.367 E5.29716
G1 X116.924 Y121.407 E5.31109
G1 X116.924 Y131.149 E5.66179
G1 X116.539 Y131.182 E5.6757
G1 X116.539 Y121.447 E6.02615
G1 X116.154 Y121.487 E6.04008
G1 X116.154 Y131.213 E6.3902
G1 X115.77 Y131.236 E6.40405
G1 X115.77 Y121.527 E6.75356
G1 X115.385 Y121.563 E6.76748
G1 X115.385 Y131.246 E7.11606
G1 X115 Y131.257 E7.12993
G1 X115 Y121.575 E7.47847
G1 X114.615 Y121.564 E7.49234
G1 X114.615 Y131.247 E7.84092
G1 X114.23 Y131.234 E7.85479
G1 X114.23 Y121.531 E8.20409
G1 X113.846 Y121.474 E8.21807
G1 X113.846 Y131.213 E8.56866
G1 X113.461 Y131.177 E8.58258
G1 X113.461 Y121.392 E8.93483
G1 X113.076 Y121.287 E8.9492
G1 X113.076 Y131.141 E9.30393
G1 X112.691 Y131.086 E9.31793
G1 X112.691 Y121.155 E9.67543
G1 X112.306 Y120.997 E9.69041
G1 X112.306 Y131.027 E10.05148
G1 X111.921 Y130.96 E10.06555
G1 X111.921 Y120.809 E10.43097
G1 X111.537 Y120.589 E10.4469
G1 X111.537 Y130.877 E10.81726
G1 X111.152 Y130.793 E10.83145
G1 X111.152 Y120.33 E11.20811
G1 X110.767 Y120.027 E11.22575
G1 X110.767 Y130.69 E11.60961
G1 X110.382 Y130.582 E11.624
G1 X110.382 Y119.675 E12.01664
G1 X109.997 Y119.264 E12.03691
