; generated by PrusaSlicer 2.6.1+win64 on 2023-11-18 at 01:46:05 UTC


;
;

;
;
; 

; external perimeters extrusion width = 0.40mm
; perimeters extrusion width = 0.40mm
; infill extrusion width = 0.40mm
; solid infill extrusion width = 0.40mm
; top infill extrusion width = 0.38mm
; support material extrusion width = 0.40mm
; first layer extrusion width = 0.40mm

M73 P0 R30


; Pre-Processed for Cancel-Object support by preprocess_cancellation v0.2.0
; 1 known objects
EXCLUDE_OBJECT_DEFINE NAME=xyzCalibration_cube_stl_id_0_copy_0 CENTER=117.099,112.399 POLYGON=[[105.2,105.194],[105.2,124.8],[124.8,124.8],[124.8,105.194]]
M190 S60 ; set bed temperature and wait for it to be reached
M104 S200 ; set temperature
;TYPE:Custom
START_PRINT EXTRUDER_TEMP=200 BED_TEMP=60
M109 S200 ; set temperature and wait for it to be reached
G21 ; set units to millimeters
G90 ; use absolute coordinates
M82 ; use absolute distances for extrusion
G92 E0
; Filament gcode
; M900 K0.035 ; Linear Advance
M107
;LAYER_CHANGE
;Z:0.25
;HEIGHT:0.25

G1 Z.25 F9000
;AFTER_LAYER_CHANGE
;0.25
G1 E-1.5 F1800
G92 E0
G1 X99.505 Y100.601 F9000
G1 E1.5 F1800
;TYPE:Skirt/Brim
;WIDTH:0.4
G1 F1200
G1 X101.272 Y99.03 E1.58512
G1 X103.459 Y98.132 E1.67023
G1 X105 Y97.961 E1.72604
G1 X125 Y97.961 E2.44602
G1 X127.331 Y98.358 E2.53114
G1 X129.399 Y99.505 E2.61627
G1 X130.97 Y101.272 E2.70139
G1 X131.868 Y103.459 E2.7865
G1 X132.039 Y105 E2.84231
G1 X132.039 Y125 E3.56229
G1 X131.642 Y127.331 E3.64741
G1 X130.495 Y129.399 E3.73254
G1 X128.728 Y130.97 E3.81766
G1 X126.541 Y131.868 E3.90277
G1 X125 Y132.039 E3.95858
G1 X105 Y132.039 E4.67856
G1 X102.669 Y131.642 E4.76368
G1 X100.601 Y130.495 E4.84881
G1 X99.03 Y128.728 E4.93393
G1 X98.132 Y126.541 E5.01904
G1 X97.961 Y125 E5.07485
G1 X97.961 Y105 E5.79483
G1 X98.358 Y102.669 E5.87995
G1 X99.476 Y100.654 E5.9629
G1 X99.788 Y100.832 F9000
G1 F1200
G1 X99.848 Y100.728 E5.96722
G1 X101.603 Y99.233 E6.05021
G1 X103.762 Y98.423 E6.13322
G1 X105 Y98.307 E6.17798
G1 X125 Y98.307 E6.89796
G1 X127.271 Y98.704 E6.98095
G1 X129.272 Y99.848 E7.06393
G1 X130.767 Y101.603 E7.14692
G1 X131.577 Y103.762 E7.22993
G1 X131.693 Y105 E7.27469
G1 X131.693 Y125 E7.99467
G1 X131.296 Y127.271 E8.07766
G1 X130.152 Y129.272 E8.16064
G1 X128.397 Y130.767 E8.24363
G1 X126.239 Y131.577 E8.32661
G1 X125 Y131.693 E8.37141
G1 X105 Y131.693 E9.09139
G1 X102.729 Y131.296 E9.17438
G1 X100.728 Y130.152 E9.25736
G1 X99.233 Y128.397 E9.34035
G1 X98.423 Y126.239 E9.42333
G1 X98.307 Y125 E9.46813
G1 X98.307 Y105 E10.18811
G1 X98.704 Y102.729 E10.2711
G1 X99.759 Y100.884 E10.34761
G1 X100.068 Y101.067 F9000
G1 F1200
G1 X100.191 Y100.858 E10.35634
G1 X101.934 Y99.444 E10.43714
G1 X105 Y98.654 E10.55112
G1 X125 Y98.654 E11.2711
G1 X127.209 Y99.051 E11.3519
G1 X129.142 Y100.191 E11.43269
G1 X130.556 Y101.934 E11.51349
G1 X131.346 Y105 E11.62747
G1 X131.346 Y125 E12.34745
G1 X130.95 Y127.209 E12.42824
G1 X129.809 Y129.142 E12.50904
G1 X128.066 Y130.556 E12.58984
G1 X125 Y131.346 E12.70382
G1 X105 Y131.346 E13.4238
G1 X102.791 Y130.95 E13.50459
G1 X100.858 Y129.809 E13.58539
G1 X99.444 Y128.066 E13.66619
G1 X98.654 Y125 E13.78017
M73 P1 R30
G1 X98.654 Y105 E14.50015
G1 X99.051 Y102.791 E14.58095
G1 X100.038 Y101.119 E14.65084
; printing object xyzCalibration_cube.stl id:0 copy 0
EXCLUDE_OBJECT_START NAME=xyzCalibration_cube_stl_id_0_copy_0
G1 E13.15084 F1800
G92 E0
G1 X124.107 Y124.107 F9000
G1 E1.5 F1800
;TYPE:Perimeter
;WIDTH:0.399999
G1 F1200
G1 X105.893 Y124.107 E2.15568
G1 X105.893 Y105.893 E2.81136
G1 X124.107 Y105.893 E3.46704
G1 X124.107 Y124.047 E4.12056
G1 X124.454 Y124.454 F9000
G1 F1200
G1 X105.546 Y124.454 E4.80123
G1 X105.546 Y105.546 E5.4819
G1 X124.454 Y105.546 E6.16257
G1 X124.454 Y124.394 E6.84108
G1 X124.8 Y124.8 F9000
;TYPE:External perimeter
G1 F1200
G1 X105.2 Y124.8 E7.54666
G1 X105.2 Y105.2 E8.25224
G1 X124.8 Y105.2 E8.95782
G1 X124.8 Y124.74 E9.66124
G1 X124.414 Y124.696 F9000
G1 E8.16124 F1800
G92 E0
G1 X123.297 Y105.997 F9000
G1 E1.5 F1800
;TYPE:Solid infill
;WIDTH:0.403162
G1 F1200
G1 X123.848 Y106.548 E1.52831
G1 X123.848 Y107.042 E1.54626
G1 X122.958 Y106.152 E1.59198
G1 X122.464 Y106.152 E1.60993
G1 X123.848 Y107.536 E1.68103
G1 X123.848 Y108.03 E1.69898
G1 X121.97 Y106.152 E1.79546
G1 X121.475 Y106.152 E1.81344
G1 X123.848 Y108.525 E1.93535
G1 X123.848 Y109.019 E1.9533
G1 X120.981 Y106.152 E2.10059
G1 X120.487 Y106.152 E2.11854
G1 X123.848 Y109.513 E2.29121
G1 X123.848 Y110.008 E2.30919
G1 X119.992 Y106.152 E2.50729
G1 X119.498 Y106.152 E2.52524
G1 X123.848 Y110.502 E2.74872
G1 X123.848 Y110.996 E2.76667
G1 X119.004 Y106.152 E3.01553
G1 X118.51 Y106.152 E3.03348
G1 X123.848 Y111.49 E3.30772
G1 X123.848 Y111.985 E3.3257
G1 X118.015 Y106.152 E3.62537
G1 X117.521 Y106.152 E3.64332
G1 X123.848 Y112.479 E3.96837
G1 X123.848 Y112.973 E3.98632
G1 X117.027 Y106.152 E4.33675
G1 X116.532 Y106.152 E4.35473
G1 X123.848 Y113.468 E4.73059
G1 X123.848 Y113.962 E4.74854
M73 P2 R30
G1 X116.038 Y106.152 E5.14978
G1 X115.544 Y106.152 E5.16773
G1 X123.848 Y114.456 E5.59435
G1 X123.848 Y114.95 E5.6123
G1 X115.05 Y106.152 E6.0643
G1 X114.555 Y106.152 E6.08228
G1 X123.848 Y115.445 E6.55971
G1 X123.848 Y115.939 E6.57766
G1 X114.061 Y106.152 E7.08047
G1 X113.567 Y106.152 E7.09842
G1 X123.848 Y116.433 E7.62661
G1 X123.848 Y116.928 E7.64459
G1 X113.072 Y106.152 E8.19821
G1 X112.578 Y106.152 E8.21616
G1 X123.848 Y117.422 E8.79516
G1 X123.848 Y117.916 E8.81311
G1 X112.084 Y106.152 E9.41748
G1 X111.59 Y106.152 E9.43543
G1 X123.848 Y118.41 E10.06518
G1 X123.848 Y118.905 E10.08316
G1 X111.095 Y106.152 E10.73834
G1 X110.601 Y106.152 E10.75629
G1 X123.848 Y119.399 E11.43685
M73 P2 R29
G1 X123.848 Y119.893 E11.4548
G1 X110.107 Y106.152 E12.16074
G1 X109.612 Y106.152 E12.17872
G1 X123.848 Y120.388 E12.91009
G1 X123.848 Y120.882 E12.92804
G1 X109.118 Y106.152 E13.68479
G1 X108.624 Y106.152 E13.70274
G1 X123.848 Y121.376 E14.48487
G1 X123.848 Y121.87 E14.50282
G1 X108.13 Y106.152 E15.31033
G1 X107.635 Y106.152 E15.32831
G1 X123.848 Y122.365 E16.16125
G1 X123.848 Y122.859 E16.1792
G1 X107.141 Y106.152 E17.03752
G1 X106.647 Y106.152 E17.05547
G1 X123.848 Y123.353 E17.93917
G1 X123.848 Y123.848 E17.95715
M73 P3 R29
G1 X106.152 Y106.152 E18.86628
G1 X106.152 Y106.647 E18.88426
G1 X123.353 Y123.848 E19.76796
G1 X122.859 Y123.848 E19.78591
G1 X106.152 Y107.141 E20.64423
G1 X106.152 Y107.635 E20.66218
G1 X122.365 Y123.848 E21.49512
G1 X121.87 Y123.848 E21.5131
G1 X106.152 Y108.13 E22.32061
G1 X106.152 Y108.624 E22.33856
G1 X121.376 Y123.848 E23.12069
G1 X120.882 Y123.848 E23.13864
G1 X106.152 Y109.118 E23.89539
G1 X106.152 Y109.612 E23.91334
G1 X120.388 Y123.848 E24.64471
G1 X119.893 Y123.848 E24.66269
G1 X106.152 Y110.107 E25.36863
G1 X106.152 Y110.601 E25.38658
G1 X119.399 Y123.848 E26.06714
G1 X118.905 Y123.848 E26.08509
G1 X106.152 Y111.095 E26.74027
G1 X106.152 Y111.59 E26.75825
G1 X118.41 Y123.848 E27.388
G1 X117.916 Y123.848 E27.40595
G1 X106.152 Y112.084 E28.01032
G1 X106.152 Y112.578 E28.02827
G1 X117.422 Y123.848 E28.60727
G1 X116.928 Y123.848 E28.62522
G1 X106.152 Y113.072 E29.17884
G1 X106.152 Y113.567 E29.19682
G1 X116.433 Y123.848 E29.72501
G1 X115.939 Y123.848 E29.74296
G1 X106.152 Y114.061 E30.24577
G1 X106.152 Y114.555 E30.26372
G1 X115.445 Y123.848 E30.74115
G1 X114.95 Y123.848 E30.75913
G1 X106.152 Y115.05 E31.21113
M73 P4 R29
G1 X106.152 Y115.544 E31.22908
G1 X114.456 Y123.848 E31.6557
G1 X113.962 Y123.848 E31.67365
G1 X106.152 Y116.038 E32.07489
G1 X106.152 Y116.532 E32.09284
G1 X113.468 Y123.848 E32.4687
G1 X112.973 Y123.848 E32.48668
G1 X106.152 Y117.027 E32.83711
G1 X106.152 Y117.521 E32.85506
G1 X112.479 Y123.848 E33.18011
G1 X111.985 Y123.848 E33.19806
G1 X106.152 Y118.015 E33.49773
G1 X106.152 Y118.51 E33.51571
G1 X111.49 Y123.848 E33.78995
G1 X110.996 Y123.848 E33.8079
G1 X106.152 Y119.004 E34.05676
G1 X106.152 Y119.498 E34.07471
G1 X110.502 Y123.848 E34.29819
G1 X110.008 Y123.848 E34.31614
G1 X106.152 Y119.992 E34.51424
G1 X106.152 Y120.487 E34.53222
G1 X109.513 Y123.848 E34.70489
G1 X109.019 Y123.848 E34.72284
G1 X106.152 Y120.981 E34.87013
G1 X106.152 Y121.475 E34.88808
G1 X108.525 Y123.848 E35.00999
G1 X108.03 Y123.848 E35.02797
G1 X106.152 Y121.97 E35.12445
G1 X106.152 Y122.464 E35.1424
G1 X107.536 Y123.848 E35.2135
G1 X107.042 Y123.848 E35.23145
G1 X106.152 Y122.958 E35.27717
G1 X106.152 Y123.452 E35.29512
G1 X106.703 Y124.003 E35.32343
; stop printing object xyzCalibration_cube.stl id:0 copy 0
EXCLUDE_OBJECT_END NAME=xyzCalibration_cube_stl_id_0_copy_0
M106 S196.35
;LAYER_CHANGE
;Z:0.45
;HEIGHT:0.2

G1 Z.45 F9000
;AFTER_LAYER_CHANGE
;0.45
; printing object xyzCalibration_cube.stl id:0 copy 0
EXCLUDE_OBJECT_START NAME=xyzCalibration_cube_stl_id_0_copy_0
G1 X124.086 Y124.086
;TYPE:Perimeter
;WIDTH:0.399999
G1 F2400
G1 X105.914 Y124.086 E35.86298
G1 X105.914 Y105.914 E36.40253
G1 X124.086 Y105.914 E36.94208
G1 X124.086 Y124.026 E37.47985
G1 X124.443 Y124.443 F9000
G1 F2400
G1 X105.557 Y124.443 E38.0406
G1 X105.557 Y105.557 E38.60135
G1 X124.443 Y105.557 E39.1621
G1 X124.443 Y124.383 E39.72107
G1 X124.8 Y124.8 F9000
;TYPE:External perimeter
G1 F1200
G1 X105.2 Y124.8 E40.30302
G1 X105.2 Y105.2 E40.88497
G1 X124.8 Y105.2 E41.46692
G1 X124.8 Y124.74 E42.04709
G1 X124.414 Y124.696 F9000
G1 X106.279 Y106.211
;TYPE:Solid infill
;WIDTH:0.486634
G1 F1800
G1 X106.24 Y106.172 E42.04912
G1 X106.186 Y106.186 E42.05118
G1 X106.172 Y106.24 E42.05324
G1 X106.211 Y106.279 E42.05527
G1 X106.265 Y106.265 E42.05733
;WIDTH:0.399999
G1 X106.182 Y106.835 E42.07443
G1 X106.835 Y106.182 E42.10185
G1 X107.34 Y106.182 E42.11684
G1 X106.182 Y107.34 E42.16546
G1 X106.182 Y107.845 E42.18045
G1 X107.845 Y106.182 E42.25028
G1 X108.35 Y106.182 E42.26527
G1 X106.182 Y108.35 E42.3563
G1 X106.182 Y108.855 E42.37129
G1 X108.855 Y106.182 E42.48353
G1 X109.36 Y106.182 E42.49852
G1 X106.182 Y109.36 E42.63196
G1 X106.182 Y109.865 E42.64695
G1 X109.865 Y106.182 E42.8016
G1 X110.37 Y106.182 E42.81659
G1 X106.182 Y110.37 E42.99244
G1 X106.182 Y110.875 E43.00743
G1 X110.875 Y106.182 E43.20449
G1 X111.38 Y106.182 E43.21948
G1 X106.182 Y111.38 E43.43774
G1 X106.182 Y111.885 E43.45273
G1 X111.885 Y106.182 E43.6922
G1 X112.39 Y106.182 E43.70719
G1 X106.182 Y112.39 E43.96786
G1 X106.182 Y112.895 E43.98285
G1 X112.895 Y106.182 E44.26473
G1 X113.4 Y106.182 E44.27972
G1 X106.182 Y113.4 E44.5828
G1 X106.182 Y113.905 E44.59779
G1 X113.905 Y106.182 E44.92208
M73 P5 R29
G1 X114.41 Y106.182 E44.93707
G1 X106.182 Y114.41 E45.28256
G1 X106.182 Y114.915 E45.29755
G1 X114.915 Y106.182 E45.66425
G1 X115.42 Y106.182 E45.67924
G1 X106.182 Y115.42 E46.06714
G1 X106.182 Y115.925 E46.08213
G1 X115.925 Y106.182 E46.49124
G1 X116.43 Y106.182 E46.50623
G1 X106.182 Y116.43 E46.93654
G1 X106.182 Y116.935 E46.95153
G1 X116.935 Y106.182 E47.40305
G1 X117.44 Y106.182 E47.41804
G1 X106.182 Y117.44 E47.89076
G1 X106.182 Y117.945 E47.90575
G1 X117.945 Y106.182 E48.39968
G1 X118.45 Y106.182 E48.41467
G1 X106.182 Y118.45 E48.9298
G1 X106.182 Y118.955 E48.94479
G1 X118.955 Y106.182 E49.48113
G1 X119.46 Y106.182 E49.49612
G1 X106.182 Y119.46 E50.05366
G1 X106.182 Y119.964 E50.06862
G1 X119.964 Y106.182 E50.64732
G1 X120.469 Y106.182 E50.66231
G1 X106.182 Y120.469 E51.26222
G1 X106.182 Y120.974 E51.27721
G1 X120.974 Y106.182 E51.89832
G1 X121.479 Y106.182 E51.91331
G1 X106.182 Y121.479 E52.55563
G1 X106.182 Y121.984 E52.57062
G1 X121.984 Y106.182 E53.23414
G1 X122.489 Y106.182 E53.24913
G1 X106.182 Y122.489 E53.93386
G1 X106.182 Y122.994 E53.94885
G1 X122.994 Y106.182 E54.65478
G1 X123.499 Y106.182 E54.66977
G1 X106.182 Y123.499 E55.39691
G1 X106.143 Y123.887 E55.40849
;WIDTH:0.38292
G1 X106.072 Y123.868 E55.41057
G1 X106.091 Y123.939 E55.41265
G1 X106.132 Y123.928 E55.41385
;WIDTH:0.399999
G1 X106.368 Y123.818 E55.42158
G1 X123.818 Y106.368 E56.1543
M73 P5 R28
G1 X123.928 Y106.132 E56.16203
;WIDTH:0.38292
G1 X123.887 Y106.143 E56.16323
G1 X123.868 Y106.072 E56.16531
G1 X123.939 Y106.091 E56.16739
G1 X123.818 Y106.873 F9000
;WIDTH:0.399999
G1 F1800
G1 X106.873 Y123.818 E56.87891
G1 X107.378 Y123.818 E56.8939
G1 X123.818 Y107.378 E57.58421
G1 X123.818 Y107.883 E57.5992
G1 X107.883 Y123.818 E58.26831
G1 X108.388 Y123.818 E58.2833
G1 X123.818 Y108.388 E58.9312
G1 X123.818 Y108.893 E58.94619
G1 X108.893 Y123.818 E59.57289
G1 X109.398 Y123.818 E59.58788
G1 X123.818 Y109.398 E60.19337
G1 X123.818 Y109.903 E60.20836
G1 X109.903 Y123.818 E60.79265
M73 P6 R28
G1 X110.408 Y123.818 E60.80764
G1 X123.818 Y110.408 E61.37072
G1 X123.818 Y110.913 E61.38571
G1 X110.913 Y123.818 E61.92759
G1 X111.418 Y123.818 E61.94258
G1 X123.818 Y111.418 E62.46325
G1 X123.818 Y111.923 E62.47824
G1 X111.923 Y123.818 E62.97771
G1 X112.428 Y123.818 E62.9927
G1 X123.818 Y112.428 E63.47096
G1 X123.818 Y112.933 E63.48595
G1 X112.933 Y123.818 E63.94301
G1 X113.438 Y123.818 E63.958
G1 X123.818 Y113.438 E64.39385
G1 X123.818 Y113.943 E64.40884
G1 X113.943 Y123.818 E64.82349
G1 X114.448 Y123.818 E64.83848
G1 X123.818 Y114.448 E65.23192
G1 X123.818 Y114.953 E65.24691
G1 X114.953 Y123.818 E65.61915
G1 X115.458 Y123.818 E65.63414
G1 X123.818 Y115.458 E65.98517
G1 X123.818 Y115.963 E66.00016
G1 X115.963 Y123.818 E66.32999
G1 X116.468 Y123.818 E66.34498
G1 X123.818 Y116.468 E66.6536
G1 X123.818 Y116.973 E66.66859
G1 X116.973 Y123.818 E66.95601
G1 X117.478 Y123.818 E66.971
G1 X123.818 Y117.478 E67.23722
G1 X123.818 Y117.983 E67.25221
G1 X117.983 Y123.818 E67.49722
G1 X118.488 Y123.818 E67.51221
G1 X123.818 Y118.488 E67.73602
G1 X123.818 Y118.993 E67.75101
G1 X118.993 Y123.818 E67.95361
G1 X119.498 Y123.818 E67.9686
G1 X123.818 Y119.498 E68.15
G1 X123.818 Y120.003 E68.16499
G1 X120.003 Y123.818 E68.32518
G1 X120.412 Y123.959 E68.33803
;WIDTH:0.38292
G1 X120.341 Y123.94 E68.34011
G1 X120.36 Y124.011 E68.34219
G1 X120.401 Y124 E68.34339
;WIDTH:0.399999
G1 X120.508 Y123.818 E68.34966
G1 X123.818 Y120.508 E68.48865
G1 X124 Y120.401 E68.49492
;WIDTH:0.38292
G1 X123.959 Y120.412 E68.49612
G1 X123.94 Y120.341 E68.4982
G1 X124.011 Y120.36 E68.50028
;WIDTH:0.399999
G1 X123.818 Y121.013 E68.5205
G1 X121.013 Y123.818 E68.63828
G1 X123.818 Y123.818 E68.72156
G1 X123.818 Y121.191 E68.79956
G1 X123.461 Y121.875 F9000
G1 F1800
G1 X121.875 Y123.461 E68.86616
G1 X123.461 Y123.461 E68.91325
G1 X123.461 Y122.054 E68.95503
G1 X123.065 Y122.978 F9000
;WIDTH:0.61488
G1 F1800
G1 X123.015 Y122.927 E68.95843
G1 X122.946 Y122.946 E68.96183
G1 X122.927 Y123.015 E68.96523
G1 X122.978 Y123.065 E68.96863
G1 X123.047 Y123.047 E68.97202
; stop printing object xyzCalibration_cube.stl id:0 copy 0
EXCLUDE_OBJECT_END NAME=xyzCalibration_cube_stl_id_0_copy_0
;LAYER_CHANGE
;Z:0.65
;HEIGHT:0.2

G1 Z.65 F9000
;AFTER_LAYER_CHANGE
;0.65
; printing object xyzCalibration_cube.stl id:0 copy 0
EXCLUDE_OBJECT_START NAME=xyzCalibration_cube_stl_id_0_copy_0
G1 X124.086 Y124.086
;TYPE:Perimeter
;WIDTH:0.399999
G1 F2400
G1 X105.914 Y124.086 E69.51157
G1 X105.914 Y105.914 E70.05112
G1 X124.086 Y105.914 E70.59067
G1 X124.086 Y124.026 E71.12844
G1 X124.443 Y124.443 F9000
G1 F2400
G1 X105.557 Y124.443 E71.68919
G1 X105.557 Y105.557 E72.24994
G1 X124.443 Y105.557 E72.81069
G1 X124.443 Y124.383 E73.36966
G1 X124.8 Y124.8 F9000
;TYPE:External perimeter
G1 F1200
G1 X105.2 Y124.8 E73.95161
G1 X105.2 Y105.2 E74.53356
G1 X124.8 Y105.2 E75.11551
G1 X124.8 Y124.74 E75.69568
M73 P7 R28
G1 X124.414 Y124.696 F9000
G1 X106.211 Y123.721
;TYPE:Solid infill
;WIDTH:0.486634
G1 F1800
G1 X106.172 Y123.76 E75.69771
G1 X106.186 Y123.814 E75.69977
G1 X106.24 Y123.828 E75.70183
G1 X106.279 Y123.789 E75.70386
G1 X106.265 Y123.736 E75.70588
;WIDTH:0.399999
G1 X106.182 Y123.165 E75.72301
G1 X106.961 Y123.929 E75.75541
;WIDTH:0.38292
G1 X106.942 Y124 E75.75749
G1 X107.013 Y123.981 E75.75957
G1 X107.002 Y123.94 E75.76077
;WIDTH:0.399999
G1 X107.34 Y123.818 E75.77144
G1 X106.182 Y122.66 E75.82006
G1 X106.182 Y122.155 E75.83505
G1 X107.845 Y123.818 E75.90488
G1 X108.35 Y123.818 E75.91987
G1 X106.182 Y121.65 E76.0109
G1 X106.182 Y121.145 E76.02589
G1 X108.855 Y123.818 E76.13813
G1 X109.36 Y123.818 E76.15312
G1 X106.182 Y120.64 E76.28656
